!!!!SEGMENT: pl-cz--iii-563--001-001_raszek-waclaw--missa-ex-dis-kyrie.krn
!!!cenid: 17xx:1070
!!!COM: Raszek, Wacław
!!!COM-rismID: pe30020314
!!!CDT: <1848->1848
!!!CNT:
!!!OPR: Missa ex Dis
!!!OTL: Kyrie
!!!OMV: 001
!!!PDT:
!!!AGN: Sacred; Mass
!!!YEC: Copyright 2022 Narodowy Instytut Fryderyka Chopina (https://polishscores.org)
!!!YEM: License CC-BY-4.0 (https://creativecommons.org/licenses/by/4.0)
!!!SMS-siglum: PL-CZ
!!!SMS-shelfmark: III-563
!!!SMS-shelfwork: 001-001 M
!!!SMS-variant:
!!!SMS-altvar:
!!!NIFC-rismSourceID: 300001050
!!!NIFC-rismChildID: 300001050
!!!NIFC-islandoraID: pl-cz:39135
!!!URL-pdf-islandora: https://repozytorium.nifc.pl/islandora/object/pl-cz%3A39135/datastream/PDF/view
!!!URL-scan: https://polish.musicsources.pl/pl/lokalizacje/galeria/rekopisy/6951/1 @EN{Scan on Polish Music Sources Website} @PL{Skany w portalu Dziedzictwo Muzyki Polskiej w otwartym dostępie}
!!!IIIF:
!!!ONB-nifc: UWAGA: części Mszy: Kyrie, Gloria, Credo, Et incarnatus, Et resurrexit, Sanctus, Pleni sunt, Benedictus, Agnus Dei, Dona nobis
!!!OMD: allo
!!!AIN: 1 alto 1 bass 1 clars 1 cor 2 empty 1 organ 1 tenor 1 viola 2 violn 1 vox
!!!key:
**kern	**dynam	**kern	**dynam	**kern	**dynam	**kern	**dynam	**kern	**text	**kern	**text	**kern	**text	**kern	**text	**dynam	**kern	**kern	**kern	**dynam	**kern
*part12	*	*part11	*	*part10	*	*part9	*	*part8	*	*part7	*	*part6	*	*part5	*	*	*part4	*part3	*part2	*	*part1
*staff12	*	*staff11	*	*staff10	*	*staff9	*	*staff8	*	*staff7	*	*staff6	*	*staff5	*	*	*staff4	*staff3	*staff2	*	*staff1
*Iorgan	*	*Iviola	*	*Ivioln	*	*Ivioln	*	*Ibass	*	*Itenor	*	*Ialto	*	*Ivox	*	*	*Icor	*Iempty	*Iclars	*	*Iempty
*I"Organo.	*	*I"Alto Viola	*	*I"Violino Secondo.	*	*I"Violino Primo.	*	*I"Basso.	*	*I"Tenore.	*	*I"Alto.	*	*I"Canto.	*	*	*I"Corno Secundo in Dis	*I"Cornu Primo in Dis.	*I"Clarinetto Secondo in B.	*	*I"Clarinetto Primo. in B.
*I'Org.	*	*I'Vla	*	*I'Vn II	*	*I'Vn I	*	*I'B.	*	*I'T.	*	*I'A.	*	*I'C.	*	*	*I'C. II in Dis	*I'C. 1 in Dis	*I'Cl. 2 in B.	*	*I'Cl. 1 in B
*clefF4	*	*clefC3	*	*clefG2	*	*clefG2	*	*clefF4	*	*clefC4	*	*clefC3	*	*clefC1	*	*	*clefG2	*clefG2	*clefG2	*	*clefG2
*	*	*	*	*	*	*	*	*	*	*	*	*	*	*	*	*	*ITrd-2c-3	*ITrd5c9	*ITrd1c2	*	*ITrd1c2
*k[b-e-a-]	*	*k[b-e-a-]	*	*k[b-e-a-]	*	*k[b-e-a-]	*	*k[b-e-a-]	*	*k[b-e-a-]	*	*k[b-e-a-]	*	*k[b-e-a-]	*	*	*k[b-e-a-]	*k[b-e-a-]	*k[b-e-a-]	*	*k[b-e-a-]
*E-:	*	*E-:	*	*E-:	*	*E-:	*	*E-:	*	*E-:	*	*E-:	*	*E-:	*	*	*E-:	*E-:	*E-:	*	*E-:
*M3/4	*	*M3/4	*	*M3/4	*	*M3/4	*	*M3/4	*	*M3/4	*	*M3/4	*	*M3/4	*	*	*M3/4	*M3/4	*M3/4	*	*M3/4
=1	=1	=1	=1	=1	=1	=1	=1	=1	=1	=1	=1	=1	=1	=1	=1	=1	=1	=1	=1	=1	=1
*2\right	*	*2\right	*	*2\right	*	*2\right	*	*	*	*	*	*	*	*	*	*	*	*	*	*	*
*	*	*tremolo	*	*	*	*	*	*	*	*	*	*	*	*	*	*	*	*	*	*	*
!	!	!	!	!	!	!	!	!	!	!	!	!	!	!	!	!	!	!	!	!	!LO:TX:t=P:problem=w źródle brak partii Clarinetto Primo
!LO:TX:a:i:t=Solo	!	!LO:TX:t=P::problem=kolejność znaków przykluczowych inna&colon; b-es-as	!	!	!	!	!	!	!	!	!	!LO:TX:t=P:problem=przy kluczu górne as	!	!LO:TX:t=P::problem=kolejność znaków przykluczowych inna&colon; es-b-as	!	!	!	!	!	!	!
!	!	!	!	!	!	!	!	!LO:TX:a:t=25	!	!	!	!	!	!LO:TX:a:t=25.	!	!	!LO:TX:a:t=25	!LO:TX:a:t=25	!	!	!
8E-\L	.	8e-\L	.	8g/L	.	8b-\L	.	0.r	.	0.r	.	0.r	.	0.r	.	.	0.r	0.r	0.r	.	2.ryy
8E-\	.	8e-\	.	8g/	.	8g\J	.	.	.	.	.	.	.	.	.	.	.	.	.	.	.
8E-\	.	8e-\	.	8g/	.	4e-/	.	.	.	.	.	.	.	.	.	.	.	.	.	.	.
8E-\	.	8e-\	.	8g/	.	.	.	.	.	.	.	.	.	.	.	.	.	.	.	.	.
8E-\	.	8e-\	.	8g/	.	8r	.	.	.	.	.	.	.	.	.	.	.	.	.	.	.
8E-\J	.	8e-\J	.	8g/J	.	8ee-\	.	.	.	.	.	.	.	.	.	.	.	.	.	.	.
=2	=2	=2	=2	=2	=2	=2	=2	=2	=2	=2	=2	=2	=2	=2	=2	=2	=2	=2	=2	=2	=2
.	.	.	.	.	.	8qdd/	.	.	.	.	.	.	.	.	.	.	.	.	.	.	.
8E-\L	.	8e-\L	.	8a-/L	.	8cc\L	.	.	.	.	.	.	.	.	.	.	.	.	.	.	2.ryy
8E-\J	.	8e-\	.	8a-/J	.	16b-\L	.	.	.	.	.	.	.	.	.	.	.	.	.	.	.
.	.	.	.	.	.	16cc\JJ	.	.	.	.	.	.	.	.	.	.	.	.	.	.	.
*tremolo	*	*	*	*tremolo	*	*	*	*	*	*	*	*	*	*	*	*	*	*	*	*	*
8E-\L	.	8e-\	.	8g/L	.	4b-\	.	.	.	.	.	.	.	.	.	.	.	.	.	.	.
8E-\	.	8e-\	.	8g/	.	.	.	.	.	.	.	.	.	.	.	.	.	.	.	.	.
8E-\	.	8e-\	.	8g/	.	8r	.	.	.	.	.	.	.	.	.	.	.	.	.	.	.
8E-\J	.	8e-\J	.	8g/J	.	8ee-\	.	.	.	.	.	.	.	.	.	.	.	.	.	.	.
=3	=3	=3	=3	=3	=3	=3	=3	=3	=3	=3	=3	=3	=3	=3	=3	=3	=3	=3	=3	=3	=3
.	.	.	.	.	.	8qdd/	.	.	.	.	.	.	.	.	.	.	.	.	.	.	.
8E-\L	.	8e-\L	.	8a-/L	.	8cc\L	.	.	.	.	.	.	.	.	.	.	.	.	.	.	2.ryy
8E-\J	.	8e-\	.	8a-/J	.	16b-\L	.	.	.	.	.	.	.	.	.	.	.	.	.	.	.
.	.	.	.	.	.	16cc\JJ	.	.	.	.	.	.	.	.	.	.	.	.	.	.	.
8E-\L	.	8e-\	.	8g/L	.	4b-\	.	.	.	.	.	.	.	.	.	.	.	.	.	.	.
8E-\	.	8e-\	.	8g/	.	.	.	.	.	.	.	.	.	.	.	.	.	.	.	.	.
8E-\	.	8e-\	.	8g/	.	8r	.	.	.	.	.	.	.	.	.	.	.	.	.	.	.
8E-\J	.	8e-\J	.	8g/J	.	8b-\	.	.	.	.	.	.	.	.	.	.	.	.	.	.	.
*Xtremolo	*	*	*	*Xtremolo	*	*	*	*	*	*	*	*	*	*	*	*	*	*	*	*	*
=4	=4	=4	=4	=4	=4	=4	=4	=4	=4	=4	=4	=4	=4	=4	=4	=4	=4	=4	=4	=4	=4
4r	.	8en\L	.	8g/	.	16an/LL	.	.	.	.	.	.	.	.	.	.	.	.	.	.	2.ryy
.	.	.	.	.	.	16b-/	.	.	.	.	.	.	.	.	.	.	.	.	.	.	.
.	.	8en\	.	4c/	.	16cc/	.	.	.	.	.	.	.	.	.	.	.	.	.	.	.
.	.	.	.	.	.	16b-/JJ	.	.	.	.	.	.	.	.	.	.	.	.	.	.	.
4En\	.	8en\	.	.	.	4.b-/	.	.	.	.	.	.	.	.	.	.	.	.	.	.	.
.	.	8en\	.	4c/	.	.	.	.	.	.	.	.	.	.	.	.	.	.	.	.	.
4C\	.	8en\	.	.	.	.	.	.	.	.	.	.	.	.	.	.	.	.	.	.	.
.	.	8en\J	.	[8c/	.	8cc/	.	.	.	.	.	.	.	.	.	.	.	.	.	.	.
*	*	*Xtremolo	*	*	*	*	*	*	*	*	*	*	*	*	*	*	*	*	*	*	*
=5	=5	=5	=5	=5	=5	=5	=5	=5	=5	=5	=5	=5	=5	=5	=5	=5	=5	=5	=5	=5	=5
4r	.	4f\	.	8c/]	.	16b-/LL	.	0.r	.	0.r	.	0.r	.	0.r	.	.	0.r	0.r	0.r	.	2.ryy
.	.	.	.	.	.	16a-X/	.	.	.	.	.	.	.	.	.	.	.	.	.	.	.
.	.	.	.	4c/	.	16g/	.	.	.	.	.	.	.	.	.	.	.	.	.	.	.
.	.	.	.	.	.	16f/JJ	.	.	.	.	.	.	.	.	.	.	.	.	.	.	.
4A-\	.	4c/	.	.	.	4.f/	.	.	.	.	.	.	.	.	.	.	.	.	.	.	.
.	.	.	.	4c/	.	.	.	.	.	.	.	.	.	.	.	.	.	.	.	.	.
4F\	.	4A-/	.	.	.	.	.	.	.	.	.	.	.	.	.	.	.	.	.	.	.
.	.	.	.	8c/	.	8a-/	.	.	.	.	.	.	.	.	.	.	.	.	.	.	.
=6	=6	=6	=6	=6	=6	=6	=6	=6	=6	=6	=6	=6	=6	=6	=6	=6	=6	=6	=6	=6	=6
4r	.	4d\	.	8B-/	.	16g/LL	.	.	.	.	.	.	.	.	.	.	.	.	.	.	2.ryy
.	.	.	.	.	.	16a-/	.	.	.	.	.	.	.	.	.	.	.	.	.	.	.
.	.	.	.	4B-/	.	16b-/	.	.	.	.	.	.	.	.	.	.	.	.	.	.	.
.	.	.	.	.	.	16a-/JJ	.	.	.	.	.	.	.	.	.	.	.	.	.	.	.
4D\	.	4f\	.	.	.	4.a-/	.	.	.	.	.	.	.	.	.	.	.	.	.	.	.
.	.	.	.	4B-/	.	.	.	.	.	.	.	.	.	.	.	.	.	.	.	.	.
4BB-/	.	4d\	.	.	.	.	.	.	.	.	.	.	.	.	.	.	.	.	.	.	.
.	.	.	.	8B-/	.	8b-/	.	.	.	.	.	.	.	.	.	.	.	.	.	.	.
=7	=7	=7	=7	=7	=7	=7	=7	=7	=7	=7	=7	=7	=7	=7	=7	=7	=7	=7	=7	=7	=7
4r	.	4.e-\	.	8B-/	.	16a-/LL	.	.	.	.	.	.	.	.	.	.	.	.	.	.	2.ryy
.	.	.	.	.	.	16g/	.	.	.	.	.	.	.	.	.	.	.	.	.	.	.
.	.	.	.	4B-/	.	16f/	.	.	.	.	.	.	.	.	.	.	.	.	.	.	.
.	.	.	.	.	.	16e-/JJ	.	.	.	.	.	.	.	.	.	.	.	.	.	.	.
8E-\L	.	.	.	.	.	8e-/	.	.	.	.	.	.	.	.	.	.	.	.	.	.	.
8c\J	.	8c\	.	4e-/	.	4a-/	.	.	.	.	.	.	.	.	.	.	.	.	.	.	.
4B-\	.	4A-/	.	.	.	.	.	.	.	.	.	.	.	.	.	.	.	.	.	.	.
.	.	.	.	8e-/	.	8g/	.	.	.	.	.	.	.	.	.	.	.	.	.	.	.
=8	=8	=8	=8	=8	=8	=8	=8	=8	=8	=8	=8	=8	=8	=8	=8	=8	=8	=8	=8	=8	=8
4A-\	.	4c\	.	8e-/	.	16g/LL	.	.	.	.	.	.	.	.	.	.	.	.	.	.	2.ryy
.	.	.	.	.	.	16f/	.	.	.	.	.	.	.	.	.	.	.	.	.	.	.
.	.	.	.	4e-/	.	16en/	.	.	.	.	.	.	.	.	.	.	.	.	.	.	.
.	.	.	.	.	.	16f/JJ	.	.	.	.	.	.	.	.	.	.	.	.	.	.	.
(4An\	.	4c\	.	.	.	8r	.	.	.	.	.	.	.	.	.	.	.	.	.	.	.
!	!	!	!	!	!	!LO:TX:t=P:problem=mixed beam	!	!	!	!	!	!	!	!	!	!	!	!	!	!	!
.	.	.	.	4f/	.	8f/L	.	.	.	.	.	.	.	.	.	.	.	.	.	.	.
4A\)	.	4c\	.	.	.	8ee-X\	.	.	.	.	.	.	.	.	.	.	.	.	.	.	.
.	.	.	.	8f/	.	8ee-\J	.	.	.	.	.	.	.	.	.	.	.	.	.	.	.
=9	=9	=9	=9	=9	=9	=9	=9	=9	=9	=9	=9	=9	=9	=9	=9	=9	=9	=9	=9	=9	=9
4B-\	.	4B-/	.	8f/L	.	16ee-\LL	.	0.r	.	2.r	.	0.r	.	0.r	.	.	0.r	0.r	0.r	.	2.ryy
.	.	.	.	.	.	16dd\	.	.	.	.	.	.	.	.	.	.	.	.	.	.	.
.	.	.	.	16e-/L	.	16cc\	.	.	.	.	.	.	.	.	.	.	.	.	.	.	.
.	.	.	.	16d/JJ	.	16b-\JJ	.	.	.	.	.	.	.	.	.	.	.	.	.	.	.
8r	.	8r	.	4d/	.	4b-\	.	.	.	.	.	.	.	.	.	.	.	.	.	.	.
8A-X`\L	.	16B-/LL	.	.	.	.	.	.	.	.	.	.	.	.	.	.	.	.	.	.	.
.	.	16A-/JJ	.	.	.	.	.	.	.	.	.	.	.	.	.	.	.	.	.	.	.
8G`\	.	8G/L	.	4r	.	4r	.	.	.	.	.	.	.	.	.	.	.	.	.	.	.
8F`\J	.	8F/J	.	.	.	.	.	.	.	.	.	.	.	.	.	.	.	.	.	.	.
=10	=10	=10	=10	=10	=10	=10	=10	=10	=10	=10	=10	=10	=10	=10	=10	=10	=10	=10	=10	=10	=10
*tremolo	*	*	*	*tremolo	*	*	*	*	*	*	*	*	*	*	*	*	*	*	*	*	*
*	*	*	*	*	*	*	*	*	*	*2\right	*	*	*	*	*	*	*	*	*	*	*
!	!	!	!	!LO:TX:t=P:p=p.:global:problem	!LO:DY:a	!	!LO:DY:a	!	!	!LO:TX:a:i:t=Solo	!	!	!	!	!	!	!	!	!	!	!
8E-\L	.	8E-/L	.	8g/L	p	8b-/L	p	.	.	8B-\	Ky-	.	.	.	.	.	.	.	.	.	2.ryy
!	!	!LO:TX:t=P:p=po:global:problem	!LO:DY:a	!	!	!	!	!	!	!	!	!	!	!	!	!	!	!	!	!	!
8E-\	.	8e-\J	p	8g/	.	8g/J	.	.	.	8G/	-ri-	.	.	.	.	.	.	.	.	.	.
*	*	*tremolo	*	*	*	*	*	*	*	*	*	*	*	*	*	*	*	*	*	*	*
8E-\	.	8e-\L	.	8g/	.	4e-/	.	.	.	4E-/	-e	.	.	.	.	.	.	.	.	.	.
8E-\	.	8e-\	.	8g/	.	.	.	.	.	.	.	.	.	.	.	.	.	.	.	.	.
8E-\	.	8e-\	.	8g/	.	8r	.	.	.	8r	.	.	.	.	.	.	.	.	.	.	.
8E-\J	.	8e-\J	.	8g/J	.	8ee-\	.	.	.	8e-\	e-	.	.	.	.	.	.	.	.	.	.
=11	=11	=11	=11	=11	=11	=11	=11	=11	=11	=11	=11	=11	=11	=11	=11	=11	=11	=11	=11	=11	=11
.	.	.	.	.	.	8qdd/	.	.	.	8qqd/	.	.	.	.	.	.	.	.	.	.	.
8E-\L	.	8e-\L	.	8a-/L	.	8cc\L	.	.	.	8c\L	-lei-	.	.	.	.	.	.	.	.	.	2.ryy
8E-\J	.	8e-\	.	8a-/J	.	16b-\L	.	.	.	16B-\L	.	.	.	.	.	.	.	.	.	.	.
.	.	.	.	.	.	16cc\JJ	.	.	.	16c\JJ	.	.	.	.	.	.	.	.	.	.	.
8E-\L	.	8e-\	.	8g/L	.	4a-\	.	.	.	4B-\	-son	.	.	.	.	.	.	.	.	.	.
8E-\	.	8e-\	.	8g/	.	.	.	.	.	.	.	.	.	.	.	.	.	.	.	.	.
8E-\	.	8e-\	.	8g/	.	8r	.	.	.	8r	.	.	.	.	.	.	.	.	.	.	.
*	*	*	*	*	*	*	*	*	*	*	*ij	*	*	*	*	*	*	*	*	*	*
8E-\J	.	8e-\J	.	8g/J	.	8ee-\	.	.	.	8e-\	e-	.	.	.	.	.	.	.	.	.	.
=12	=12	=12	=12	=12	=12	=12	=12	=12	=12	=12	=12	=12	=12	=12	=12	=12	=12	=12	=12	=12	=12
.	.	.	.	.	.	8qdd/	.	.	.	8qqd/	.	.	.	.	.	.	.	.	.	.	.
8E-\L	.	8e-\L	.	8a-/L	.	8cc\L	.	.	.	8c\L	-lei-	.	.	.	.	.	.	.	.	.	2.ryy
8E-\J	.	8e-\	.	8a-/J	.	16b-\L	.	.	.	16B-\L	.	.	.	.	.	.	.	.	.	.	.
.	.	.	.	.	.	16cc\JJ	.	.	.	16c\JJ	.	.	.	.	.	.	.	.	.	.	.
8E-\L	.	8e-\	.	8g/L	.	4b-\	.	.	.	4B-\	-son	.	.	.	.	.	.	.	.	.	.
8E-\	.	8e-\	.	8g/	.	.	.	.	.	.	.	.	.	.	.	.	.	.	.	.	.
*	*	*	*	*	*	*	*	*	*	*	*Xij	*	*	*	*	*	*	*	*	*	*
8E-\	.	8e-\	.	8g/	.	8r	.	.	.	8r	.	.	.	.	.	.	.	.	.	.	.
*	*	*	*	*	*	*	*	*	*	*	*ij	*	*	*	*	*	*	*	*	*	*
8E-\J	.	8e-\J	.	8g/J	.	8b-\	.	.	.	8B-\	e-	.	.	.	.	.	.	.	.	.	.
*Xtremolo	*	*Xtremolo	*	*Xtremolo	*	*	*	*	*	*	*	*	*	*	*	*	*	*	*	*	*
=13	=13	=13	=13	=13	=13	=13	=13	=13	=13	=13	=13	=13	=13	=13	=13	=13	=13	=13	=13	=13	=13
4r	.	4e-\	.	8c/	.	16an/LL	.	0.r	.	16An\LL	-lei-	0.r	.	0.r	.	.	0.r	0.r	0.r	.	2.ryy
.	.	.	.	.	.	16b-/	.	.	.	16B-\	.	.	.	.	.	.	.	.	.	.	.
.	.	.	.	4c/	.	16cc/	.	.	.	16c\	.	.	.	.	.	.	.	.	.	.	.
.	.	.	.	.	.	16b-/JJ	.	.	.	16B-\JJ	.	.	.	.	.	.	.	.	.	.	.
4En\	.	4g\	.	.	.	4.b-/	.	.	.	4.B-\	-son	.	.	.	.	.	.	.	.	.	.
.	.	.	.	4c/	.	.	.	.	.	.	.	.	.	.	.	.	.	.	.	.	.
4C/	.	4en\	.	.	.	.	.	.	.	.	.	.	.	.	.	.	.	.	.	.	.
*	*	*	*	*	*	*	*	*	*	*	*Xij	*	*	*	*	*	*	*	*	*	*
.	.	.	.	[8c/	.	8cc\	.	.	.	8c\	e-	.	.	.	.	.	.	.	.	.	.
=14	=14	=14	=14	=14	=14	=14	=14	=14	=14	=14	=14	=14	=14	=14	=14	=14	=14	=14	=14	=14	=14
.	.	.	.	.	.	.	.	.	.	8qqB-/	.	.	.	.	.	.	.	.	.	.	.
4r	.	4f\	.	8c/]	.	16b-/LL	.	.	.	8A-X/L	-lei-	.	.	.	.	.	.	.	.	.	2.ryy
.	.	.	.	.	.	16a-X/	.	.	.	.	.	.	.	.	.	.	.	.	.	.	.
.	.	.	.	4c/	.	16g/	.	.	.	16G/L	.	.	.	.	.	.	.	.	.	.	.
.	.	.	.	.	.	16f/JJ	.	.	.	16F/JJ	.	.	.	.	.	.	.	.	.	.	.
4A-\	.	4F/	.	.	.	4.f/	.	.	.	4.F/	-son	.	.	.	.	.	.	.	.	.	.
.	.	.	.	4c/	.	.	.	.	.	.	.	.	.	.	.	.	.	.	.	.	.
4F\	.	4A-/	.	.	.	.	.	.	.	.	.	.	.	.	.	.	.	.	.	.	.
*	*	*	*	*	*	*	*	*	*	*	*ij	*	*	*	*	*	*	*	*	*	*
.	.	.	.	8c/	.	8a-/	.	.	.	8A-/	e-	.	.	.	.	.	.	.	.	.	.
=15	=15	=15	=15	=15	=15	=15	=15	=15	=15	=15	=15	=15	=15	=15	=15	=15	=15	=15	=15	=15	=15
4r	.	4d\	.	8B-/	.	16g/LL	.	.	.	16G/LL	-lei-	.	.	.	.	.	.	.	.	.	2.ryy
.	.	.	.	.	.	16a-/	.	.	.	16A-/	.	.	.	.	.	.	.	.	.	.	.
.	.	.	.	4B-/	.	16b-/	.	.	.	16B-/	.	.	.	.	.	.	.	.	.	.	.
.	.	.	.	.	.	16a-/JJ	.	.	.	16A-/JJ	.	.	.	.	.	.	.	.	.	.	.
4D/	.	4f\	.	.	.	4.a-/	.	.	.	4.A-\	-son	.	.	.	.	.	.	.	.	.	.
.	.	.	.	4B-/	.	.	.	.	.	.	.	.	.	.	.	.	.	.	.	.	.
4BB-/	.	4d\	.	.	.	.	.	.	.	.	.	.	.	.	.	.	.	.	.	.	.
*	*	*	*	*	*	*	*	*	*	*	*Xij	*	*	*	*	*	*	*	*	*	*
*	*	*	*	*	*	*	*	*	*	*	*ij	*	*	*	*	*	*	*	*	*	*
.	.	.	.	8B-/	.	8b-/	.	.	.	8B-\	e-	.	.	.	.	.	.	.	.	.	.
=16	=16	=16	=16	=16	=16	=16	=16	=16	=16	=16	=16	=16	=16	=16	=16	=16	=16	=16	=16	=16	=16
.	.	.	.	.	.	.	.	.	.	8qqA-/	.	.	.	.	.	.	.	.	.	.	.
4r	.	4e-\	.	8B-/	.	16a-/LL	.	.	.	8G/L	-lei-	.	.	.	.	.	.	.	.	.	2.ryy
.	.	.	.	.	.	16g/	.	.	.	.	.	.	.	.	.	.	.	.	.	.	.
.	.	.	.	4B-/	.	16f/	.	.	.	16F/L	.	.	.	.	.	.	.	.	.	.	.
.	.	.	.	.	.	16e-/JJ	.	.	.	16E-/JJ	.	.	.	.	.	.	.	.	.	.	.
4G\	.	4G/	.	.	.	4.e-/	.	.	.	4.E-/	-son	.	.	.	.	.	.	.	.	.	.
.	.	.	.	4g/	.	.	.	.	.	.	.	.	.	.	.	.	.	.	.	.	.
4E-\	.	4B-/	.	.	.	.	.	.	.	.	.	.	.	.	.	.	.	.	.	.	.
*	*	*	*	*	*	*	*	*	*	*	*Xij	*	*	*	*	*	*	*	*	*	*
*	*	*	*	*	*	*	*	*	*	*	*ij	*	*	*	*	*	*	*	*	*	*
.	.	.	.	8g/	.	8ee-\	.	.	.	8e-\	e-	.	.	.	.	.	.	.	.	.	.
=17	=17	=17	=17	=17	=17	=17	=17	=17	=17	=17	=17	=17	=17	=17	=17	=17	=17	=17	=17	=17	=17
4An\	.	8c\	.	8f/	.	16dd\LL	.	0.r	.	16d\LL	-lei-	0.r	.	0.r	.	.	0.r	0.r	0.r	.	2.ryy
.	.	.	.	.	.	16ee-\	.	.	.	16e-\	.	.	.	.	.	.	.	.	.	.	.
.	.	4c\	.	4f/	.	16ff\	.	.	.	16f\	.	.	.	.	.	.	.	.	.	.	.
.	.	.	.	.	.	16ee-\JJ	.	.	.	16e-\JJ	.	.	.	.	.	.	.	.	.	.	.
!	!	!	!	!	!	!LO:TX:t=P:problem=mixed beam	!	!	!	!	!	!	!	!	!	!	!	!	!	!	!
4c\	.	.	.	.	.	8ee-\L	.	.	.	4e-\	-son	.	.	.	.	.	.	.	.	.	.
.	.	4c\	.	4f/	.	8f/	.	.	.	.	.	.	.	.	.	.	.	.	.	.	.
*	*	*	*	*	*	*	*	*	*	*	*Xij	*	*	*	*	*	*	*	*	*	*
4A\	.	.	.	.	.	8ee-\	.	.	.	8r	.	.	.	.	.	.	.	.	.	.	.
*	*	*	*	*	*	*	*	*	*	*	*ij	*	*	*	*	*	*	*	*	*	*
.	.	8c\	.	[8f/	.	8ee-\J	.	.	.	8e-\	e-	.	.	.	.	.	.	.	.	.	.
=18	=18	=18	=18	=18	=18	=18	=18	=18	=18	=18	=18	=18	=18	=18	=18	=18	=18	=18	=18	=18	=18
.	.	.	.	.	.	.	.	.	.	8qqe-/	.	.	.	.	.	.	.	.	.	.	.
4B-\	.	8B-/	.	8f/]	.	16ee-\LL	.	.	.	8d\L	-lei-	.	.	.	.	.	.	.	.	.	2.ryy
.	.	.	.	.	.	16dd\	.	.	.	.	.	.	.	.	.	.	.	.	.	.	.
.	.	4B-/	.	4f/	.	16cc\	.	.	.	16c\L	.	.	.	.	.	.	.	.	.	.	.
.	.	.	.	.	.	16b-\JJ	.	.	.	16B-\JJ	.	.	.	.	.	.	.	.	.	.	.
4d\	.	.	.	.	.	8b-\L	.	.	.	8B-,>\	-son	.	.	.	.	.	.	.	.	.	.
*	*	*	*	*	*	*	*	*	*	*	*Xij	*	*	*	*	*	*	*	*	*	*
*	*	*	*	*	*	*	*	*	*	*	*ij	*	*	*	*	*	*	*	*	*	*
.	.	4B-/	.	4f/	.	8b-\	.	.	.	8B-\	e-	.	.	.	.	.	.	.	.	.	.
4B-\	.	.	.	.	.	8cc\	.	.	.	8c\L	-lei-	.	.	.	.	.	.	.	.	.	.
.	.	8B-/	.	[8f/	.	8dd\J	.	.	.	8d\J	.	.	.	.	.	.	.	.	.	.	.
=19	=19	=19	=19	=19	=19	=19	=19	=19	=19	=19	=19	=19	=19	=19	=19	=19	=19	=19	=19	=19	=19
4An\	.	8c\	.	8f/]	.	16dd\LL	.	.	.	4e-\	-son	.	.	.	.	.	.	.	.	.	2.ryy
.	.	.	.	.	.	16ee-\	.	.	.	.	.	.	.	.	.	.	.	.	.	.	.
.	.	4c\	.	4f/	.	16ff\	.	.	.	.	.	.	.	.	.	.	.	.	.	.	.
.	.	.	.	.	.	16ee-\JJ	.	.	.	.	.	.	.	.	.	.	.	.	.	.	.
!	!	!	!	!	!	!LO:TX:t=P:problem=mixed beam	!	!	!	!	!	!	!	!	!	!	!	!	!	!	!
4c\	.	.	.	.	.	8ee-\L	.	.	.	4r	.	.	.	.	.	.	.	.	.	.	.
.	.	4c\	.	4f/	.	8f/	.	.	.	.	.	.	.	.	.	.	.	.	.	.	.
*	*	*	*	*	*	*	*	*	*	*	*Xij	*	*	*	*	*	*	*	*	*	*
4A\	.	.	.	.	.	8ee-\	.	.	.	4e-\	e-	.	.	.	.	.	.	.	.	.	.
.	.	8c\	.	8f/	.	8ee-\J	.	.	.	.	.	.	.	.	.	.	.	.	.	.	.
=20	=20	=20	=20	=20	=20	=20	=20	=20	=20	=20	=20	=20	=20	=20	=20	=20	=20	=20	=20	=20	=20
4B-\	.	4B-/	.	4f/	.	8dd\L	.	.	.	8d\L	-lei-	.	.	.	.	.	.	.	.	.	2.ryy
.	.	.	.	.	.	8ff\	.	.	.	8f\	.	.	.	.	.	.	.	.	.	.	.
8G\L	.	8g\L	.	4b-/	.	8ee-\	.	.	.	8e-\	.	.	.	.	.	.	.	.	.	.	.
8F\	.	8f\	.	.	.	8dd\	.	.	.	8d\	.	.	.	.	.	.	.	.	.	.	.
8E-\	.	8e-\	.	4g/	.	8cc\	.	.	.	8c\	.	.	.	.	.	.	.	.	.	.	.
8En\J	.	8en\J	.	.	.	8b-\J	.	.	.	8B-\J	.	.	.	.	.	.	.	.	.	.	.
=21	=21	=21	=21	=21	=21	=21	=21	=21	=21	=21	=21	=21	=21	=21	=21	=21	=21	=21	=21	=21	=21
4F\	.	4f\	.	8f/	.	16an\LL	.	0.r	.	16A-\LL	.	0.r	.	0.r	.	.	0.r	0.r	0.r	.	2.ryy
.	.	.	.	.	.	16b-\	.	.	.	16Bn\	.	.	.	.	.	.	.	.	.	.	.
.	.	.	.	4f/	.	16a\	.	.	.	16A-\	.	.	.	.	.	.	.	.	.	.	.
.	.	.	.	.	.	16b-\JJ	.	.	.	16B\JJ	.	.	.	.	.	.	.	.	.	.	.
4An\	.	4c\	.	.	.	16cc\LL	.	.	.	16c\LL	.	.	.	.	.	.	.	.	.	.	.
.	.	.	.	.	.	16dd\	.	.	.	16d\	.	.	.	.	.	.	.	.	.	.	.
.	.	.	.	4f/	.	16cc\	.	.	.	16c\	.	.	.	.	.	.	.	.	.	.	.
.	.	.	.	.	.	16dd\JJ	.	.	.	16d\JJ	.	.	.	.	.	.	.	.	.	.	.
4F\	.	4An/	.	.	.	4ee-\	.	.	.	4e-\	.	.	.	.	.	.	.	.	.	.	.
.	.	.	.	8f/	.	.	.	.	.	.	.	.	.	.	.	.	.	.	.	.	.
=22	=22	=22	=22	=22	=22	=22	=22	=22	=22	=22	=22	=22	=22	=22	=22	=22	=22	=22	=22	=22	=22
4B-\	.	4B-/	.	4f/	.	8dd\L	.	.	.	8d\	-son	.	.	.	.	.	.	.	.	.	2.ryy
.	.	.	.	.	.	8ff\J	.	.	.	8f\L	e-	.	.	.	.	.	.	.	.	.	.
8G\L	.	8g\L	.	4b-/	.	8ee-\L	.	.	.	8e-\	.	.	.	.	.	.	.	.	.	.	.
8F\	.	8f\	.	.	.	8dd\J	.	.	.	8d\J	.	.	.	.	.	.	.	.	.	.	.
8E-\	.	8e-\	.	4g/	.	8cc\L	.	.	.	8c\L	-lei-	.	.	.	.	.	.	.	.	.	.
8En\J	.	8en\J	.	.	.	16dd\L	.	.	.	16d\L	.	.	.	.	.	.	.	.	.	.	.
.	.	.	.	.	.	16b-\JJ	.	.	.	16B-\JJ	.	.	.	.	.	.	.	.	.	.	.
=23	=23	=23	=23	=23	=23	=23	=23	=23	=23	=23	=23	=23	=23	=23	=23	=23	=23	=23	=23	=23	=23
!	!	!LO:TX:t=P:problem=mixed beam	!	!	!	!LO:TX:t=P:problem=mixed beam	!	!	!	!	!	!	!	!	!	!	!	!	!	!	!
4F\	.	8f\L	.	4c/	.	8an/L	.	.	.	8An\	-son	.	.	.	.	.	.	.	.	.	2.ryy
.	.	8An/	.	.	.	8ff\	.	.	.	8f\	e-	.	.	.	.	.	.	.	.	.	.
4r	.	8G/	.	4r	.	8een\	.	.	.	8en\L	-lei-	.	.	.	.	.	.	.	.	.	.
.	.	8A/J	.	.	.	8ff\	.	.	.	8f\	.	.	.	.	.	.	.	.	.	.	.
4An\	.	4c/	.	4g/	.	8cc\	.	.	.	8c\	.	.	.	.	.	.	.	.	.	.	.
.	.	.	.	.	.	8ee-X\J	.	.	.	8e-X\J	.	.	.	.	.	.	.	.	.	.	.
=24	=24	=24	=24	=24	=24	=24	=24	=24	=24	=24	=24	=24	=24	=24	=24	=24	=24	=24	=24	=24	=24
8B-\L	.	8B-\L	.	8f/L	.	8ddt\L	.	.	.	8d\L	.	.	.	.	.	.	.	.	.	.	2.ryy
8E-\J	.	8e-\J	.	16g/L	.	16ee-\L	.	.	.	16e-\L	.	.	.	.	.	.	.	.	.	.	.
.	.	.	.	16e-/JJ	.	16cc\JJ	.	.	.	16c\JJ	.	.	.	.	.	.	.	.	.	.	.
*	*	*tremolo	*	*	*	*	*	*	*	*	*	*	*	*	*	*	*	*	*	*	*
!LO:TX:t=P:problem=mixed beam	!	!LO:TX:t=P:problem=w źródle po nucie [tremolo] jeszcze kropka	!	!	!	!	!	!	!	!	!	!	!	!	!	!	!	!	!	!	!
8F\L	.	8f\L	.	8d/L	.	4b-\	.	.	.	4B-\	.	.	.	.	.	.	.	.	.	.	.
8F\	.	8f\	.	8d/	.	.	.	.	.	.	.	.	.	.	.	.	.	.	.	.	.
8FF/	.	8f\	.	8c/	.	4an\	.	.	.	4A-\	.	.	.	.	.	.	.	.	.	.	.
8FF/J	.	8f\J	.	8c/J	.	.	.	.	.	.	.	.	.	.	.	.	.	.	.	.	.
*	*	*Xtremolo	*	*	*	*	*	*	*	*	*	*	*	*	*	*	*	*	*	*	*
=25	=25	=25	=25	=25	=25	=25	=25	=25	=25	=25	=25	=25	=25	=25	=25	=25	=25	=25	=25	=25	=25
4BB-/	.	4B-/	.	4d/	.	4b-\	.	2.r	.	4B-\	-son	2.r	.	2.r	.	.	2.r	2.r	2.r	.	2.ryy
8B-\L	.	8b-\L	.	4r	.	4r	.	.	.	4r	.	.	.	.	.	.	.	.	.	.	.
8A-X\	.	8a-X\	.	.	.	.	.	.	.	.	.	.	.	.	.	.	.	.	.	.	.
8G\	.	8g\	.	4r	.	4r	.	.	.	4r	.	.	.	.	.	.	.	.	.	.	.
8F\J	.	8f\J	.	.	.	.	.	.	.	.	.	.	.	.	.	.	.	.	.	.	.
=26	=26	=26	=26	=26	=26	=26	=26	=26	=26	=26	=26	=26	=26	=26	=26	=26	=26	=26	=26	=26	=26
*	*	*	*	*	*	*	*	*2\right	*	*	*	*2\right	*	*2\right	*	*	*2\right	*2\right	*2\right	*	*
*tremolo	*	*tremolo	*	*	*	*	*	*	*	*	*	*	*	*	*	*	*	*	*	*	*
!	!	!	!	!	!	!	!	!	!	!LO:TX:t=P:Tutti=T.:problem	!	!LO:TX:t=P:Tutti=T.:problem	!	!	!	!	!	!	!	!	!
!LO:TX:a:i:t=Tutti	!	!LO:TX:t=P:f=for:global:problem	!	!LO:TX:t=P:f=for.:problem	!	!	!LO:DY:a	!	!	!LO:TX:a:i:t=Tutti	!	!LO:TX:a:i:t=Tutti	!	!LO:TX:a:i:t=Tutti	!	!	!	!	!	!	!
8E-\L	.	8e-\L	f	16g/LL	f	8ee-L 8e-`/	ff	8.E-\	Ky-	8.e-\	Ky-	8.g\	Ky-	8b-\	Ky-	.	4g/	4e-\	2g/	.	2.ryy
.	.	.	.	16b-/	.	.	.	.	.	.	.	.	.	.	.	.	.	.	.	.	.
8E-\	.	8e-\	.	16g/	.	(32e-/LL	.	.	.	.	.	.	.	8b-\	-ri-	.	.	.	.	.	.
.	.	.	.	.	.	32f/	.	.	.	.	.	.	.	.	.	.	.	.	.	.	.
.	.	.	.	16b-/JJ	.	32g/	.	16E-\	-ri-	16e-\	-ri-	16g\	-ri-	.	.	.	.	.	.	.	.
.	.	.	.	.	.	32f/JJJ)	.	.	.	.	.	.	.	.	.	.	.	.	.	.	.
!	!	!	!	!	!	!LO:TX:t=P:problem=mixed beam	!	!	!	!	!	!	!	!	!	!	!	!	!	!	!
8E-\	.	8e-\	.	4g/	.	8e-/L	.	4E-\	-e	4e-\	-e	4g\	-e	4b-\	-e	.	4g/	4e-\	.	.	.
8E-\	.	8e-\	.	.	.	8b-/	.	.	.	.	.	.	.	.	.	.	.	.	.	.	.
!	!	!	!	!	!	!	!	!	!	!	!	!	!	!	!	!	!	!	!LO:TX:t=P::problem=caudy ćwierćnut i ósemek nieregularnie&colon; środek, prawo	!	!
8E-\	.	8e-\	.	4b-/	.	8ee-\	.	4E-\	e	4e-\	e-	4g\	e-	4b-\	e-	.	4g/	4e-\	4ee-\	.	.
8E-\J	.	8e-\J	.	.	.	8gg\J	.	.	.	.	.	.	.	.	.	.	.	.	.	.	.
=27	=27	=27	=27	=27	=27	=27	=27	=27	=27	=27	=27	=27	=27	=27	=27	=27	=27	=27	=27	=27	=27
*	*	*	*	*tremolo	*	*	*	*	*	*	*	*	*	*	*	*	*	*	*	*	*
!	!	!	!	!LO:TX:t=P:problem=tremolo na dwóch nutach z kropką	!	!	!	!	!	!	!	!	!	!	!	!	!	!	!	!	!
8D\L	.	8d\L	.	16f/LL	.	(16gg\LL	.	2D\	lei-	2f\	-lei-	2f\	-lei-	2b-\	-lei-	.	2b-/	2f\	2dd\	.	2.ryy
.	.	.	.	16b-/	.	16ff\)	.	.	.	.	.	.	.	.	.	.	.	.	.	.	.
8D\	.	8d\	.	16f/	.	16een`\	.	.	.	.	.	.	.	.	.	.	.	.	.	.	.
.	.	.	.	16b-/	.	16ff`\JJ	.	.	.	.	.	.	.	.	.	.	.	.	.	.	.
8D\	.	8d\	.	16f/	.	16r	.	.	.	.	.	.	.	.	.	.	.	.	.	.	.
.	.	.	.	16b-/	.	16aa-X\LL	.	.	.	.	.	.	.	.	.	.	.	.	.	.	.
8D\J	.	8d\	.	16f/	.	16gg\	.	.	.	.	.	.	.	.	.	.	.	.	.	.	.
.	.	.	.	16b-/	.	16aa-\JJ	.	.	.	.	.	.	.	.	.	.	.	.	.	.	.
8BB-/L	.	8d\	.	16f/	.	16bb-\LL	.	4D\	-son	4f\	-son	4a-\	-son	4b-\	-son	.	4ff\	4a-\	4ff\	.	.
.	.	.	.	16b-/	.	16aa-\	.	.	.	.	.	.	.	.	.	.	.	.	.	.	.
8BB-/J	.	8d\J	.	16f/	.	16gg\	.	.	.	.	.	.	.	.	.	.	.	.	.	.	.
.	.	.	.	16b-/JJ	.	16aa-\JJ	.	.	.	.	.	.	.	.	.	.	.	.	.	.	.
=28	=28	=28	=28	=28	=28	=28	=28	=28	=28	=28	=28	=28	=28	=28	=28	=28	=28	=28	=28	=28	=28
*	*	*	*	*	*	*	*	*	*ij	*	*ij	*	*ij	*	*ij	*	*	*	*	*	*
!	!	!	!	!LO:TX:t=P:problem=tremolo na dwóch nutach z kropką	!	!	!	!	!	!	!	!	!	!	!	!	!	!	!	!	!
8E-\L	.	8e-\L	.	16g/LL	.	8gg 8b- 8e-/	.	8.E-\	Ky-	8.e-\	Ky-	8.g\	Ky-	8b-\	Ky-	.	4ee-\	4g\	4ee-\	.	2.ryy
.	.	.	.	16b-/	.	.	.	.	.	.	.	.	.	.	.	.	.	.	.	.	.
8E-\	.	8e-\	.	16g/	.	32e-/LLL	.	.	.	.	.	.	.	8b-\	-ri-	.	.	.	.	.	.
.	.	.	.	.	.	32f/	.	.	.	.	.	.	.	.	.	.	.	.	.	.	.
.	.	.	.	16b-/	.	32g/	.	16E-\	-ri-	16e-\	-ri-	16g\	-ri-	.	.	.	.	.	.	.	.
.	.	.	.	.	.	32f/JJJ	.	.	.	.	.	.	.	.	.	.	.	.	.	.	.
!	!	!	!	!	!	!LO:TX:t=P:problem=mixed beam	!	!	!	!	!	!	!	!	!	!	!	!	!	!	!
8E-\	.	8e-\	.	16g/	.	8e-/L	.	4E-\	-e	4e-\	-e	4g\	-e	4b-\	-e	.	4g/	4e-\	4ee-\	.	.
.	.	.	.	16b-/	.	.	.	.	.	.	.	.	.	.	.	.	.	.	.	.	.
8E-\	.	8e-\	.	16g/	.	8b-/	.	.	.	.	.	.	.	.	.	.	.	.	.	.	.
.	.	.	.	16b-/	.	.	.	.	.	.	.	.	.	.	.	.	.	.	.	.	.
8E-\	.	8e-\	.	16g/	.	8ee-\	.	4E-\	e-	4e-\	e-	4g\	e-	4b-\	e-	.	4g/	4e-\	4ee-\	.	.
.	.	.	.	16b-/	.	.	.	.	.	.	.	.	.	.	.	.	.	.	.	.	.
8E-\J	.	8e-\J	.	16g/	.	8gg\J	.	.	.	.	.	.	.	.	.	.	.	.	.	.	.
.	.	.	.	16b-/JJ	.	.	.	.	.	.	.	.	.	.	.	.	.	.	.	.	.
=29	=29	=29	=29	=29	=29	=29	=29	=29	=29	=29	=29	=29	=29	=29	=29	=29	=29	=29	=29	=29	=29
!	!	!	!	!LO:TX:t=P:problem=tremolo na dwóch nutach z kropką	!	!	!	!	!	!	!	!	!	!	!	!	!	!	!	!	!
8D\L	.	8d\L	.	16f/LL	.	16gg\LL	.	2D\	-lei-	2f\	-lei-	2f\	-lei-	2b-\	-lei-	.	4b-/	4f\	4dd\	.	2.ryy
.	.	.	.	16b-/	.	16ff\	.	.	.	.	.	.	.	.	.	.	.	.	.	.	.
8D\	.	8d\	.	16f/	.	16een\	.	.	.	.	.	.	.	.	.	.	.	.	.	.	.
.	.	.	.	16b-/	.	16ff\JJ	.	.	.	.	.	.	.	.	.	.	.	.	.	.	.
8D\	.	8d\	.	16f/	.	8ff\L	.	.	.	.	.	.	.	.	.	.	8r	8r	8r	.	.
.	.	.	.	16b-/	.	.	.	.	.	.	.	.	.	.	.	.	.	.	.	.	.
8D\J	.	8d\	.	16f/	.	16bb-\L	.	.	.	.	.	.	.	.	.	.	8ee-\	8g\	8ee-\	.	.
.	.	.	.	16b-/	.	16gg\JJ	.	.	.	.	.	.	.	.	.	.	.	.	.	.	.
8BB-/L	.	8d\	.	16f/	.	4ff\	.	4B-\	-son	4d\	-son	4f\	-son	4b-\	-son	.	4b-/	4f\	4dd\	.	.
.	.	.	.	16b-/	.	.	.	.	.	.	.	.	.	.	.	.	.	.	.	.	.
8BB-/J	.	8d\J	.	16f/	.	.	.	.	.	.	.	.	.	.	.	.	.	.	.	.	.
.	.	.	.	16b-/JJ	.	.	.	.	.	.	.	.	.	.	.	.	.	.	.	.	.
*	*	*	*	*	*	*	*	*	*Xij	*	*Xij	*	*Xij	*	*Xij	*	*	*	*	*	*
*Xtremolo	*	*	*	*	*	*	*	*	*	*	*	*	*	*	*	*	*	*	*	*	*
=30	=30	=30	=30	=30	=30	=30	=30	=30	=30	=30	=30	=30	=30	=30	=30	=30	=30	=30	=30	=30	=30
!LO:TX:t=P:problem=mixed beam	!	!	!	!LO:TX:t=P:problem=tremolo na dwóch nutach z kropką	!	!LO:TX:t=P:problem=mixed beam	!	!	!	!	!	!	!	!	!	!	!	!	!	!	!
8AAn/L	.	8f\L	.	16c/LL	.	8f/L	.	2An\	Ky-	2c\	Ky-	2f\	Ky-	2ee-\	Ky-	.	4ff\	4f\	2.cc\	.	2.ryy
.	.	.	.	16f/	.	.	.	.	.	.	.	.	.	.	.	.	.	.	.	.	.
8An\	.	8f\	.	16c/	.	16ee-\L	.	.	.	.	.	.	.	.	.	.	.	.	.	.	.
.	.	.	.	16f/	.	16dd\JJ	.	.	.	.	.	.	.	.	.	.	.	.	.	.	.
8A\	.	8f\	.	16c/	.	8ee-\L	.	.	.	.	.	.	.	.	.	.	8r	8r	.	.	.
.	.	.	.	16f/	.	.	.	.	.	.	.	.	.	.	.	.	.	.	.	.	.
8A\	.	8f\	.	16c/	.	8ee-\	.	.	.	.	.	.	.	.	.	.	8ff\L	8f\L	.	.	.
.	.	.	.	16f/	.	.	.	.	.	.	.	.	.	.	.	.	.	.	.	.	.
8A\	.	8f\	.	16c/	.	8ff\	.	4A\	-ri-	4c\	-ri-	4f\	-ri-	4ee-\	-ri-	.	8ff\	8f\	.	.	.
.	.	.	.	16f/	.	.	.	.	.	.	.	.	.	.	.	.	.	.	.	.	.
8A\J	.	8f\J	.	16c/	.	8cc\J	.	.	.	.	.	.	.	.	.	.	8ff\J	8f\J	.	.	.
.	.	.	.	16f/JJ	.	.	.	.	.	.	.	.	.	.	.	.	.	.	.	.	.
=31	=31	=31	=31	=31	=31	=31	=31	=31	=31	=31	=31	=31	=31	=31	=31	=31	=31	=31	=31	=31	=31
*tremolo	*	*	*	*	*	*	*	*	*	*	*	*	*	*	*	*	*	*	*	*	*
8B-\L	.	8f\L	.	16d/LL	.	16dd\LL	.	2B-\	-e	2B-\	-e	2f\	-e	2dd\	-e	.	2.b-/	2.f\	2b-\	.	2.ryy
!	!	!	!	!LO:TX:t=P:problem=tremolo na dwóch nutach z kropką	!	!	!	!	!	!	!	!	!	!	!	!	!	!	!	!	!
.	.	.	.	16b-/	.	16ee-\	.	.	.	.	.	.	.	.	.	.	.	.	.	.	.
8B-\	.	8f\	.	16d/	.	16dd\	.	.	.	.	.	.	.	.	.	.	.	.	.	.	.
.	.	.	.	16b-/	.	16ee-\JJ	.	.	.	.	.	.	.	.	.	.	.	.	.	.	.
8B-\	.	8f\	.	16d/	.	16ff\LL	.	.	.	.	.	.	.	.	.	.	.	.	.	.	.
.	.	.	.	16b-/	.	16gg\	.	.	.	.	.	.	.	.	.	.	.	.	.	.	.
8B-\J	.	8f\	.	16d/	.	16aa-\	.	.	.	.	.	.	.	.	.	.	.	.	.	.	.
.	.	.	.	16b-/	.	16bb-\JJ	.	.	.	.	.	.	.	.	.	.	.	.	.	.	.
*	*	*	*	*	*	*	*	*	*	*	*	*	*	*	*	*	*	*	*	*	*
8d\L	.	8f\	.	16d/	.	8ff\L	.	4B-\	e-	4B-\	e-	4f\	e-	4dd\	e-	.	.	.	4dd\	.	.
.	.	.	.	16b-/	.	.	.	.	.	.	.	.	.	.	.	.	.	.	.	.	.
8d\J	.	8f\J	.	16d/	.	8ff\J	.	.	.	.	.	.	.	.	.	.	.	.	.	.	.
.	.	.	.	16b-/JJ	.	.	.	.	.	.	.	.	.	.	.	.	.	.	.	.	.
=32	=32	=32	=32	=32	=32	=32	=32	=32	=32	=32	=32	=32	=32	=32	=32	=32	=32	=32	=32	=32	=32
!	!	!	!	!	!	!LO:TX:t=P:problem=mixed beam	!	!	!	!	!	!	!	!	!	!	!	!	!	!	!
8c\L	.	8c\L	.	16f/LL	.	8f/L	.	2.An\	-lei-	2.c\	-lei-	2.f\	-lei-	2.ee-\	-lei-	.	2.ff\	2.f\	2.cc\	.	2.ryy
.	.	.	.	16f/	.	.	.	.	.	.	.	.	.	.	.	.	.	.	.	.	.
8c\J	.	8c\	.	16f/	.	16ee-\L	.	.	.	.	.	.	.	.	.	.	.	.	.	.	.
.	.	.	.	16f/	.	16dd\JJ	.	.	.	.	.	.	.	.	.	.	.	.	.	.	.
8An\L	.	8c\	.	16f/	.	8ee-\L	.	.	.	.	.	.	.	.	.	.	.	.	.	.	.
.	.	.	.	16f/	.	.	.	.	.	.	.	.	.	.	.	.	.	.	.	.	.
8An\	.	8c\	.	16f/	.	8ee-\	.	.	.	.	.	.	.	.	.	.	.	.	.	.	.
.	.	.	.	16f/	.	.	.	.	.	.	.	.	.	.	.	.	.	.	.	.	.
8An\	.	8c\	.	16f/	.	8ff\	.	.	.	.	.	.	.	.	.	.	.	.	.	.	.
.	.	.	.	16f/	.	.	.	.	.	.	.	.	.	.	.	.	.	.	.	.	.
8An\J	.	8c\J	.	16f/	.	8cc\J	.	.	.	.	.	.	.	.	.	.	.	.	.	.	.
.	.	.	.	16f/JJ	.	.	.	.	.	.	.	.	.	.	.	.	.	.	.	.	.
*Xtremolo	*	*	*	*	*	*	*	*	*	*	*	*	*	*	*	*	*	*	*	*	*
=33	=33	=33	=33	=33	=33	=33	=33	=33	=33	=33	=33	=33	=33	=33	=33	=33	=33	=33	=33	=33	=33
*	*	*	*	*	*	*tremolo	*	*	*	*	*	*	*	*	*	*	*	*	*	*	*
8B-\L	.	8B-/L	.	16f/LL	.	16dd\LL	.	4B-\	.	4B-\	.	2.b-\	-son	(4dd\	.	.	4ff\	4f\	2.b-\	.	2.ryy
.	.	.	.	16f/	.	16dd\	.	.	.	.	.	.	.	.	.	.	.	.	.	.	.
8B-\	.	8B-/J	.	16f/	.	16dd\	.	.	.	.	.	.	.	.	.	.	.	.	.	.	.
.	.	.	.	16f/JJ	.	16dd\JJ	.	.	.	.	.	.	.	.	.	.	.	.	.	.	.
8G\	.	8g\L	.	16b-/LL	.	16ee-\LL	.	4G\	.	4e-\	.	.	.	4ee-\	.	.	4r	4r	.	.	.
.	.	.	.	16b-/	.	16ee-\	.	.	.	.	.	.	.	.	.	.	.	.	.	.	.
8G\	.	8g\J	.	16b-/	.	16ee-\	.	.	.	.	.	.	.	.	.	.	.	.	.	.	.
.	.	.	.	16b-/	.	16ee-\JJ	.	.	.	.	.	.	.	.	.	.	.	.	.	.	.
8D\	.	8d\L	.	16b-/	.	16ff\LL	.	4D\	.	4d\	.	.	.	4ff\)	.	.	4r	4r	.	.	.
.	.	.	.	16b-/	.	16ff\	.	.	.	.	.	.	.	.	.	.	.	.	.	.	.
8D\J	.	8d\J	.	16b-/	.	16ff\	.	.	.	.	.	.	.	.	.	.	.	.	.	.	.
.	.	.	.	16b-/JJ	.	16ff\JJ	.	.	.	.	.	.	.	.	.	.	.	.	.	.	.
*	*	*	*	*	*	*Xtremolo	*	*	*	*	*	*	*	*	*	*	*	*	*	*	*
=34	=34	=34	=34	=34	=34	=34	=34	=34	=34	=34	=34	=34	=34	=34	=34	=34	=34	=34	=34	=34	=34
*tremolo	*	*	*	*	*	*	*	*	*	*	*	*	*	*	*	*	*	*	*	*	*
8E-\L	.	8e-\L	.	16b-/LL	.	8gg\L	.	2.E-\	.	2.e-\	.	2.b-\	e-	2.gg\	.	.	2.ee-\	2.g\	2.b-\	.	2.ryy
.	.	.	.	16b-/	.	.	.	.	.	.	.	.	.	.	.	.	.	.	.	.	.
8E-\	.	8e-\	.	16b-/	.	16gg\L	.	.	.	.	.	.	.	.	.	.	.	.	.	.	.
.	.	.	.	16b-/	.	16ff\JJ	.	.	.	.	.	.	.	.	.	.	.	.	.	.	.
8E-\	.	8e-\	.	16b-/	.	8gg\L	.	.	.	.	.	.	.	.	.	.	.	.	.	.	.
.	.	.	.	16b-/	.	.	.	.	.	.	.	.	.	.	.	.	.	.	.	.	.
8E-\	.	8e-\	.	16b-/	.	8gg\	.	.	.	.	.	.	.	.	.	.	.	.	.	.	.
.	.	.	.	16b-/	.	.	.	.	.	.	.	.	.	.	.	.	.	.	.	.	.
8E-\	.	8e-\	.	16b-/	.	8aa-\	.	.	.	.	.	.	.	.	.	.	.	.	.	.	.
.	.	.	.	16b-/	.	.	.	.	.	.	.	.	.	.	.	.	.	.	.	.	.
8E-\J	.	8e-\J	.	16b-/	.	8bb-\J	.	.	.	.	.	.	.	.	.	.	.	.	.	.	.
.	.	.	.	16b-/JJ	.	.	.	.	.	.	.	.	.	.	.	.	.	.	.	.	.
*	*	*Xtremolo	*	*	*	*	*	*	*	*	*	*	*	*	*	*	*	*	*	*	*
=35	=35	=35	=35	=35	=35	=35	=35	=35	=35	=35	=35	=35	=35	=35	=35	=35	=35	=35	=35	=35	=35
!	!	!	!	!LO:TX:t=P:problem=tremolo na dwóch nutach z kropką	!	!	!	!	!	!	!	!	!	!	!	!	!LO:TX:t=P:problem=wysokość nuty korygowana, nad nutą litera "e"	!	!	!	!
8En\L	.	8en\L	.	16g/LL	.	16cc\LL	.	2.En\	.	2.g\	.	2.b-\	-lei-	2.cc\	.	.	2.gg\	2.g\	2.gg\	.	2.ryy
.	.	.	.	16cc/	.	16bb-\	.	.	.	.	.	.	.	.	.	.	.	.	.	.	.
8En\	.	16e\L	.	16g/	.	16cc\	.	.	.	.	.	.	.	.	.	.	.	.	.	.	.
.	.	16d\JJ	.	16cc/	.	16bb-\JJ	.	.	.	.	.	.	.	.	.	.	.	.	.	.	.
8En\	.	8e\L	.	16g/	.	4cc\LL	.	.	.	.	.	.	.	.	.	.	.	.	.	.	.
.	.	.	.	16cc/	.	.	.	.	.	.	.	.	.	.	.	.	.	.	.	.	.
8En\	.	8g\	.	16g/	.	.	.	.	.	.	.	.	.	.	.	.	.	.	.	.	.
.	.	.	.	16cc/	.	.	.	.	.	.	.	.	.	.	.	.	.	.	.	.	.
8En\	.	8e\	.	16g/	.	4bb-\JJ	.	.	.	.	.	.	.	.	.	.	.	.	.	.	.
.	.	.	.	16cc/	.	.	.	.	.	.	.	.	.	.	.	.	.	.	.	.	.
8En\J	.	8c\J	.	16g/	.	.	.	.	.	.	.	.	.	.	.	.	.	.	.	.	.
.	.	.	.	16cc/JJ	.	.	.	.	.	.	.	.	.	.	.	.	.	.	.	.	.
*Xtremolo	*	*	*	*Xtremolo	*	*	*	*	*	*	*	*	*	*	*	*	*	*	*	*	*
=36	=36	=36	=36	=36	=36	=36	=36	=36	=36	=36	=36	=36	=36	=36	=36	=36	=36	=36	=36	=36	=36
!	!	!	!	!	!	!	!	!	!	!	!	!	!	!	!	!	!LO:TX:t=P:problem=wysokość nuty korygowana, nad nutą litera "d"	!	!	!	!
4F\	.	4f\	.	4cc\	.	4aan\	.	4F\	-son	4f\	-son	4an\	-son	4cc\	-son.	.	4ff\	4f\	4ff\	.	2.ryy
4r	.	4r	.	4r	.	8r	.	4r	.	4r	.	4r	.	4r	.	.	4r	4r	4r	.	.
.	.	.	.	.	.	8f/L	.	.	.	.	.	.	.	.	.	.	.	.	.	.	.
4r	.	4r	.	4r	.	8f/	.	4r	.	4r	.	4r	.	4r	.	.	4r	4r	4r	.	.
.	.	.	.	.	.	8f/J	.	.	.	.	.	.	.	.	.	.	.	.	.	.	.
=37	=37	=37	=37	=37	=37	=37	=37	=37	=37	=37	=37	=37	=37	=37	=37	=37	=37	=37	=37	=37	=37
!	!	!	!	!	!	!	!	!	!	!	!	!	!	!LO:TX:a:t=6	!	!	!LO:TX:a:t=6	!LO:TX:a:t=6	!LO:TX:a:t=2.	!	!
!	!	!	!	!	!LO:DY:a	!LO:TX:t=P:p=p::global:problem	!LO:DY:a	!	!	!	!	!	!	!	!	!	!	!	!	!	!
4r	.	4r	.	8f/	pp	4.ff\	p	0.r	.	0.r	.	0.r	.	0.r	.	.	0.r	0.r	1.r	.	2.ryy
.	.	.	.	4f/	.	.	.	.	.	.	.	.	.	.	.	.	.	.	.	.	.
!LO:TX:b:i:t=Violone&colon;	!	!	!	!	!	!	!	!	!	!	!	!	!	!	!	!	!	!	!	!	!
!LO:TX:t=P:p=p::global:problem	!LO:DY:a	!	!LO:DY:a	!	!	!	!	!	!	!	!	!	!	!	!	!	!	!	!	!	!
4d\	p	4B-\	p	.	.	.	.	.	.	.	.	.	.	.	.	.	.	.	.	.	.
.	.	.	.	4f/	.	16ee-\LL	.	.	.	.	.	.	.	.	.	.	.	.	.	.	.
.	.	.	.	.	.	16ff\JJ	.	.	.	.	.	.	.	.	.	.	.	.	.	.	.
4B-\	.	4d\	.	.	.	8gg\L	.	.	.	.	.	.	.	.	.	.	.	.	.	.	.
.	.	.	.	[8f/	.	8dd\J	.	.	.	.	.	.	.	.	.	.	.	.	.	.	.
=38	=38	=38	=38	=38	=38	=38	=38	=38	=38	=38	=38	=38	=38	=38	=38	=38	=38	=38	=38	=38	=38
4r	.	4r	.	8f/]	.	16ff\LL	.	.	.	.	.	.	.	.	.	.	.	.	.	.	2.ryy
.	.	.	.	.	.	16ee-\	.	.	.	.	.	.	.	.	.	.	.	.	.	.	.
.	.	.	.	4f/	.	16dd\	.	.	.	.	.	.	.	.	.	.	.	.	.	.	.
.	.	.	.	.	.	16cc\JJ	.	.	.	.	.	.	.	.	.	.	.	.	.	.	.
4c\	.	4An/	.	.	.	4.cc\	.	.	.	.	.	.	.	.	.	.	.	.	.	.	.
.	.	.	.	4f/	.	.	.	.	.	.	.	.	.	.	.	.	.	.	.	.	.
4A-\	.	4A/	.	.	.	.	.	.	.	.	.	.	.	.	.	.	.	.	.	.	.
.	.	.	.	[8f/	.	8ff\	.	.	.	.	.	.	.	.	.	.	.	.	.	.	.
=39	=39	=39	=39	=39	=39	=39	=39	=39	=39	=39	=39	=39	=39	=39	=39	=39	=39	=39	=39	=39	=39
!	!	!	!	!	!	!	!	!	!	!	!	!	!	!	!	!	!	!	!LO:TX:t=P:p=p:problem	!LO:DY:a	!
4r	.	4r	.	8f/]	.	8een\L	.	.	.	.	.	.	.	.	.	.	.	.	2.f/	p	2.ryy
.	.	.	.	4f/	.	8ff\J	.	.	.	.	.	.	.	.	.	.	.	.	.	.	.
4d\	.	4B-/	.	.	.	4.ff\	.	.	.	.	.	.	.	.	.	.	.	.	.	.	.
.	.	.	.	4f/	.	.	.	.	.	.	.	.	.	.	.	.	.	.	.	.	.
4B-\	.	4d\	.	.	.	.	.	.	.	.	.	.	.	.	.	.	.	.	.	.	.
.	.	.	.	[8f/	.	8dd\	.	.	.	.	.	.	.	.	.	.	.	.	.	.	.
=40	=40	=40	=40	=40	=40	=40	=40	=40	=40	=40	=40	=40	=40	=40	=40	=40	=40	=40	=40	=40	=40
4r	.	4r	.	8f/]	.	16ff\LL	.	.	.	.	.	.	.	.	.	.	.	.	2.f/	.	2.ryy
.	.	.	.	.	.	16ee-\	.	.	.	.	.	.	.	.	.	.	.	.	.	.	.
.	.	.	.	4f/	.	16dd\	.	.	.	.	.	.	.	.	.	.	.	.	.	.	.
.	.	.	.	.	.	16cc\JJ	.	.	.	.	.	.	.	.	.	.	.	.	.	.	.
4c\	.	4An/	.	.	.	4.cc\	.	.	.	.	.	.	.	.	.	.	.	.	.	.	.
.	.	.	.	4f/	.	.	.	.	.	.	.	.	.	.	.	.	.	.	.	.	.
4F\	.	4A/	.	.	.	.	.	.	.	.	.	.	.	.	.	.	.	.	.	.	.
.	.	.	.	8f/	.	8ee-\	.	.	.	.	.	.	.	.	.	.	.	.	.	.	.
=41	=41	=41	=41	=41	=41	=41	=41	=41	=41	=41	=41	=41	=41	=41	=41	=41	=41	=41	=41	=41	=41
!	!	!LO:TX:t=P:problem=mixed beam	!	!	!	!	!	!	!	!	!	!	!	!	!	!	!	!	!	!	!
4B-\	.	8B-/L	.	8f/	.	8dd\L	.	1.r	.	1.r	.	1.r	.	1.r	.	.	1.r	1.r	8f/	.	2.ryy
.	.	8b-\	.	4b-/	.	8ff\	.	.	.	.	.	.	.	.	.	.	.	.	8r	.	.
8G\L	.	8g\	.	.	.	8ee-\	.	.	.	.	.	.	.	.	.	.	.	.	4r	.	.
8F\	.	8f\	.	4b-/	.	8dd\	.	.	.	.	.	.	.	.	.	.	.	.	.	.	.
8E-\	.	8e-\	.	.	.	8cc\	.	.	.	.	.	.	.	.	.	.	.	.	4r	.	.
8En\J	.	8en\J	.	8g/	.	8b-\J	.	.	.	.	.	.	.	.	.	.	.	.	.	.	.
=42	=42	=42	=42	=42	=42	=42	=42	=42	=42	=42	=42	=42	=42	=42	=42	=42	=42	=42	=42	=42	=42
!	!	!	!	!	!	!	!	!	!	!	!	!	!	!	!	!	!	!	!LO:TX:a:t=1.	!	!
4F\	.	4f\	.	16f/LL	.	16an\LL	.	.	.	.	.	.	.	.	.	.	.	.	2.r	.	2.ryy
.	.	.	.	16an/	.	16cc\	.	.	.	.	.	.	.	.	.	.	.	.	.	.	.
.	.	.	.	16g/	.	16b-\	.	.	.	.	.	.	.	.	.	.	.	.	.	.	.
.	.	.	.	16b-/JJ	.	16dd\JJ	.	.	.	.	.	.	.	.	.	.	.	.	.	.	.
4r	.	4r	.	16a\LL	.	16cc\LL	.	.	.	.	.	.	.	.	.	.	.	.	.	.	.
.	.	.	.	16cc\	.	16ee-\	.	.	.	.	.	.	.	.	.	.	.	.	.	.	.
.	.	.	.	16b-\	.	16dd\	.	.	.	.	.	.	.	.	.	.	.	.	.	.	.
.	.	.	.	16dd\JJ	.	16ff\JJ	.	.	.	.	.	.	.	.	.	.	.	.	.	.	.
4r	.	4r	.	16cc\LL	.	16ee-\LL	.	.	.	.	.	.	.	.	.	.	.	.	.	.	.
.	.	.	.	16ee-\	.	16gg\	.	.	.	.	.	.	.	.	.	.	.	.	.	.	.
.	.	.	.	16cc\	.	16ff\	.	.	.	.	.	.	.	.	.	.	.	.	.	.	.
.	.	.	.	16ee-\JJ	.	16aan\JJ	.	.	.	.	.	.	.	.	.	.	.	.	.	.	.
=43	=43	=43	=43	=43	=43	=43	=43	=43	=43	=43	=43	=43	=43	=43	=43	=43	=43	=43	=43	=43	=43
!LO:TX:t=P:Tutti=T:problem	!	!	!	!	!	!	!	!	!	!	!	!	!	!	!	!	!	!	!	!	!
!LO:TX:a:i:t=Tutti	!	!	!	!LO:TX:t=P:problem=mixed beam	!	!	!	!	!	!	!	!	!	!	!	!	!	!	!	!	!
!LO:TX:b:i:t=org&colon;	!	!	!LO:DY:a	!LO:TX:t=P:f=f.:global:problem	!LO:DY:a	!LO:TX:t=P:problem=mixed beam	!	!	!	!	!	!	!	!	!	!	!	!	!	!	!
8B-\L	.	8B-\L	f	16dd\LL	f	8bb-\L	.	8.B-\	Ky-	8.d\	Ky-	8.f\	Ky-	8b-\	Ky-	.	4b-/	4f\	4r	.	2.ryy
.	.	.	.	16f/	.	.	.	.	.	.	.	.	.	.	.	.	.	.	.	.	.
8d\J	.	8d\J	.	16f/	.	16b-/L	p	.	.	.	.	.	.	8b-\	-ri-	.	.	.	.	.	.
.	.	.	.	16f/JJ	.	16cc/JJ	.	16B-\	-ri-	16d\	-ri-	16f\	-ri-	.	.	.	.	.	.	.	.
*	*	*	*	*tremolo	*	*	*	*	*	*	*	*	*	*	*	*	*	*	*	*	*
8r	.	8r	.	16f/LL	.	8b-\L	.	8B-\	-e	8d\	-e	4f\	-e	8b-\	-e	.	4b-/	4f\	2f/	.	.
.	.	.	.	16f/	.	.	.	.	.	.	.	.	.	.	.	.	.	.	.	.	.
8d\L	.	8d\L	.	16f/	.	8b-\	.	8d\L	e-	8B-\L	e-	.	.	8b-\	e-	.	.	.	.	.	.
.	.	.	.	16f/	.	.	.	.	.	.	.	.	.	.	.	.	.	.	.	.	.
8c\	.	8c\	.	16f/	.	8cc\	.	8c\	.	8An\	.	4f\	e-	8cc\L	-lei-	.	4r	4r	.	.	.
.	.	.	.	16f/	.	.	.	.	.	.	.	.	.	.	.	.	.	.	.	.	.
8B-\J	.	8B-\J	.	16f/	.	8dd\J	.	8B-\J	.	8B-\J	.	.	.	8dd\J	.	.	.	.	.	.	.
.	.	.	.	16f/JJ	.	.	.	.	.	.	.	.	.	.	.	.	.	.	.	.	.
=44	=44	=44	=44	=44	=44	=44	=44	=44	=44	=44	=44	=44	=44	=44	=44	=44	=44	=44	=44	=44	=44
*	*	*tremolo	*	*	*	*	*	*	*	*	*	*	*	*	*	*	*	*	*	*	*
8An\L	.	8c\L	.	16f/LL	.	4ee-\	.	2.An\	-lei-	2.c\	-lei-	2.f\	-lei-	2.ee-\	.	.	2.ff\	2.f\	2.f/	.	2.ryy
.	.	.	.	16f/	.	.	.	.	.	.	.	.	.	.	.	.	.	.	.	.	.
8A\	.	8c\	.	16f/	.	.	.	.	.	.	.	.	.	.	.	.	.	.	.	.	.
.	.	.	.	16f/	.	.	.	.	.	.	.	.	.	.	.	.	.	.	.	.	.
8F\	.	8c\	.	16f/	.	16r	.	.	.	.	.	.	.	.	.	.	.	.	.	.	.
.	.	.	.	16f/	.	16ee-\LL	.	.	.	.	.	.	.	.	.	.	.	.	.	.	.
8F\	.	8c\	.	16f/	.	16dd\	.	.	.	.	.	.	.	.	.	.	.	.	.	.	.
.	.	.	.	16f/	.	16ee-\JJ	.	.	.	.	.	.	.	.	.	.	.	.	.	.	.
8A\	.	8c\	.	16f/	.	16ff\LL	.	.	.	.	.	.	.	.	.	.	.	.	.	.	.
.	.	.	.	16f/	.	16ee-\	.	.	.	.	.	.	.	.	.	.	.	.	.	.	.
8A\J	.	8c\J	.	16f/	.	16dd\	.	.	.	.	.	.	.	.	.	.	.	.	.	.	.
.	.	.	.	16f/JJ	.	16ee-\JJ	.	.	.	.	.	.	.	.	.	.	.	.	.	.	.
*	*	*Xtremolo	*	*	*	*	*	*	*	*	*	*	*	*	*	*	*	*	*	*	*
=45	=45	=45	=45	=45	=45	=45	=45	=45	=45	=45	=45	=45	=45	=45	=45	=45	=45	=45	=45	=45	=45
8B-\L	.	8B-\L	.	16f/LL	.	8dd\L	.	4B-\	-son	4B-\	-son	2f\	-son	4dd\	-son	.	2.b-/	2.f\	2.f/	.	2.ryy
.	.	.	.	16f/	.	.	.	.	.	.	.	.	.	.	.	.	.	.	.	.	.
8d\J	.	8d\J	.	16f/	.	16b-\L	.	.	.	.	.	.	.	.	.	.	.	.	.	.	.
.	.	.	.	16f/	.	16cc\JJ	.	.	.	.	.	.	.	.	.	.	.	.	.	.	.
8r	.	8r	.	16f/	.	8b-\L	.	8r	.	8r	.	.	.	8r	.	.	.	.	.	.	.
.	.	.	.	16f/	.	.	.	.	.	.	.	.	.	.	.	.	.	.	.	.	.
8d\L	.	8d\L	.	16f/	.	8b-\	.	8d\L	e-	8B-\L	e-	.	.	8b-\L	e-	.	.	.	.	.	.
.	.	.	.	16f/	.	.	.	.	.	.	.	.	.	.	.	.	.	.	.	.	.
8c\	.	8c\	.	16f/	.	8cc\	.	8c\	.	8An\	.	4f\	e-	8cc\	.	.	.	.	.	.	.
.	.	.	.	16f/	.	.	.	.	.	.	.	.	.	.	.	.	.	.	.	.	.
8B-\J	.	8B-\J	.	16f/	.	8dd\J	.	8B-\J	.	8B-\J	.	.	.	8dd\J	.	.	.	.	.	.	.
.	.	.	.	16f/JJ	.	.	.	.	.	.	.	.	.	.	.	.	.	.	.	.	.
=46	=46	=46	=46	=46	=46	=46	=46	=46	=46	=46	=46	=46	=46	=46	=46	=46	=46	=46	=46	=46	=46
*	*	*tremolo	*	*	*	*	*	*	*	*	*	*	*	*	*	*	*	*	*	*	*
8An\L	.	8c\L	.	16f/LL	.	4ee-\	.	2.An\	-lei-	2.c\	-lei-	2.f\	-lei-	2.ee-\	-lei-	.	2.ff\	2.f\	2.f/	.	2.ryy
.	.	.	.	16f/	.	.	.	.	.	.	.	.	.	.	.	.	.	.	.	.	.
8A\	.	8c\	.	16f/	.	.	.	.	.	.	.	.	.	.	.	.	.	.	.	.	.
.	.	.	.	16f/	.	.	.	.	.	.	.	.	.	.	.	.	.	.	.	.	.
8F\	.	8c\	.	16f/	.	16r	.	.	.	.	.	.	.	.	.	.	.	.	.	.	.
.	.	.	.	16f/	.	16ee-\LL	.	.	.	.	.	.	.	.	.	.	.	.	.	.	.
8F\	.	8c\	.	16f/	.	16dd\	.	.	.	.	.	.	.	.	.	.	.	.	.	.	.
.	.	.	.	16f/	.	16ee-\JJ	.	.	.	.	.	.	.	.	.	.	.	.	.	.	.
8A\	.	8c\	.	16f/	.	16ff\LL	.	.	.	.	.	.	.	.	.	.	.	.	.	.	.
.	.	.	.	16f/	.	16ee-\	.	.	.	.	.	.	.	.	.	.	.	.	.	.	.
8A\J	.	8c\J	.	16f/	.	16dd\	.	.	.	.	.	.	.	.	.	.	.	.	.	.	.
.	.	.	.	16f/JJ	.	16ee-\JJ	.	.	.	.	.	.	.	.	.	.	.	.	.	.	.
*	*	*Xtremolo	*	*	*	*	*	*	*	*	*	*	*	*	*	*	*	*	*	*	*
=47	=47	=47	=47	=47	=47	=47	=47	=47	=47	=47	=47	=47	=47	=47	=47	=47	=47	=47	=47	=47	=47
!	!	!	!	!	!	!	!	!	!	!	!	!LO:TX:t=P:problem=takt zapisany powtórką	!	!	!	!	!	!	!	!	!
8B-\L	.	8B-\L	.	16f/LL	.	8dd\L	.	8B-\	-son	8B-\	-son	2.f\	.	8dd\L	-son	.	4b-/	4f\	8b-\L	.	2.ryy
.	.	.	.	16f/	.	.	.	.	.	.	.	.	.	.	.	.	.	.	.	.	.
*	*	*	*	*	*	*	*	*	*	*	*ij	*	*	*	*ij	*	*	*	*	*	*
8d\	.	8d\	.	16f/	.	8b-\	.	8d\L	e-	8B-\L	e-	.	.	8b-\J	e-	.	.	.	8b-\	.	.
.	.	.	.	16f/	.	.	.	.	.	.	.	.	.	.	.	.	.	.	.	.	.
8c\	.	8c\	.	16f/	.	8cc\	.	8c\	.	8An\	.	.	.	8cc\L	-lei-	.	4r	4r	8cc\	.	.
.	.	.	.	16f/	.	.	.	.	.	.	.	.	.	.	.	.	.	.	.	.	.
8B-\	.	8B-\J	.	16f/	.	8dd\J	.	8B-\J	.	8B-\J	.	.	.	8dd\J	.	.	.	.	8dd\J	.	.
.	.	.	.	16f/	.	.	.	.	.	.	.	.	.	.	.	.	.	.	.	.	.
8An\	.	4c\	.	16f/	.	8.ee-T\L	.	8An\L	-le-	4c\	-lei-	.	.	4ee-\	.	.	4ff\	4f\	4ee-\	.	.
.	.	.	.	16f/	.	.	.	.	.	.	.	.	.	.	.	.	.	.	.	.	.
8F\J	.	.	.	16f/	.	.	.	8F\J	-i-	.	.	.	.	.	.	.	.	.	.	.	.
.	.	.	.	16f/JJ	.	32ff\LL	.	.	.	.	.	.	.	.	.	.	.	.	.	.	.
.	.	.	.	.	.	32ee-\JJJ	.	.	.	.	.	.	.	.	.	.	.	.	.	.	.
=48	=48	=48	=48	=48	=48	=48	=48	=48	=48	=48	=48	=48	=48	=48	=48	=48	=48	=48	=48	=48	=48
8B-\L	.	8B-\L	.	16f/LL	.	8dd\L	.	8B-\	-son	8B-,>\	-son	4f\	-son	8dd,>\	-son	.	4b-/	4f\	8dd\L	.	2.ryy
.	.	.	.	16f/	.	.	.	.	.	.	.	.	.	.	.	.	.	.	.	.	.
*	*	*	*	*	*	*	*	*	*	*	*Xij	*	*	*	*Xij	*	*	*	*	*	*
*	*	*	*	*	*	*	*	*	*	*	*	*	*	*	*ij	*	*	*	*	*	*
8d\	.	8d\	.	16f/	.	8b-\	.	8d\	e-	8B-\	e-	.	.	8b-\	e-	.	.	.	8b-\	.	.
.	.	.	.	16f/	.	.	.	.	.	.	.	.	.	.	.	.	.	.	.	.	.
8c\	.	8c\	.	16f/	.	8cc\	.	8c\L	-lei-	8An\L	-lei-	4f\	Ky-	8cc\L	-lei-	.	4r	4r	8cc\	.	.
.	.	.	.	16f/	.	.	.	.	.	.	.	.	.	.	.	.	.	.	.	.	.
8B-\	.	8B-\J	.	16f/	.	8dd\J	.	8B-\J	.	8B-\J	.	.	.	8dd\J	.	.	.	.	8dd\J	.	.
.	.	.	.	16f/	.	.	.	.	.	.	.	.	.	.	.	.	.	.	.	.	.
8A-\	.	4c\	.	16f/	.	8.ee-T\L	.	8An\L	.	4c\	.	4f\	-ri-	4ee-\	.	.	4ff\	4f\	4ee-\	.	.
.	.	.	.	16f/	.	.	.	.	.	.	.	.	.	.	.	.	.	.	.	.	.
8F\J	.	.	.	16f/	.	.	.	8F\J	.	.	.	.	.	.	.	.	.	.	.	.	.
.	.	.	.	16f/JJ	.	32ff\LL	.	.	.	.	.	.	.	.	.	.	.	.	.	.	.
.	.	.	.	.	.	32ee-\JJJ	.	.	.	.	.	.	.	.	.	.	.	.	.	.	.
=49	=49	=49	=49	=49	=49	=49	=49	=49	=49	=49	=49	=49	=49	=49	=49	=49	=49	=49	=49	=49	=49
!	!	!LO:TX:t=P:problem=mixed beam	!	!	!	!	!	!	!	!	!	!	!	!	!	!	!	!	!	!	!
8B-\L	.	8B-/L	.	16dd\LL	.	8dd\L	.	4B-\	-son	2B-\	-son	2f\	-e	4dd,>\	-son	.	4b-/	4f\	2.dd\	.	2.ryy
.	.	.	.	16dd\	.	.	.	.	.	.	.	.	.	.	.	.	.	.	.	.	.
8B-\	.	8b-\	.	16dd\	.	8bb-\J	.	.	.	.	.	.	.	.	.	.	.	.	.	.	.
.	.	.	.	16dd\	.	.	.	.	.	.	.	.	.	.	.	.	.	.	.	.	.
*	*	*	*	*	*	*	*	*	*	*	*	*	*	*	*Xij	*	*	*	*	*	*
8G\	.	8g\	.	16dd\	.	16ccc\LL	.	(4G\	e-	.	.	.	.	2dd\	e-	.	4g/	4g\	.	.	.
.	.	.	.	16dd\	.	16bb-\	.	.	.	.	.	.	.	.	.	.	.	.	.	.	.
8G\	.	8g\	.	16dd\	.	16aa-\	.	.	.	.	.	.	.	.	.	.	.	.	.	.	.
.	.	.	.	16dd\	.	16bb-\JJ	.	.	.	.	.	.	.	.	.	.	.	.	.	.	.
8D\	.	8f\	.	16dd\	.	16ccc\LL	.	4D\)	.	4B-\	e-	4b-\	e-	.	.	.	4b-/	4f\	.	.	.
.	.	.	.	16dd\	.	16bb-\	.	.	.	.	.	.	.	.	.	.	.	.	.	.	.
8D\J	.	8f\J	.	16dd\	.	16aa-\	.	.	.	.	.	.	.	.	.	.	.	.	.	.	.
.	.	.	.	16dd\JJ	.	16bb-\JJ	.	.	.	.	.	.	.	.	.	.	.	.	.	.	.
*	*	*	*	*Xtremolo	*	*	*	*	*	*	*	*	*	*	*	*	*	*	*	*	*
=50	=50	=50	=50	=50	=50	=50	=50	=50	=50	=50	=50	=50	=50	=50	=50	=50	=50	=50	=50	=50	=50
.	.	.	.	.	.	8qaa-/	.	.	.	.	.	.	.	.	.	.	.	.	.	.	.
!LO:TX:t=P:problem=mixed beam	!	!	!	!	!	!	!	!	!	!	!	!	!	!	!	!	!	!	!	!	!
8E-\L	.	8g\L	.	8ee-\L	.	8gg\L	.	4E-\	-lei-	4B-\	-lei-	8g\L	.	8ee-\L	-lei-	.	4ee-\	4g\	4cc\	.	2.ryy
8E-\	.	8g\J	.	16dd\L	.	16ff\L	.	.	.	.	.	16f\L	-lei	16dd\L	.	.	.	.	.	.	.
.	.	.	.	16cc\JJ	.	16ee-\JJ	.	.	.	.	.	16e-\JJ	.	16cc\JJ	.	.	.	.	.	.	.
*	*	*tremolo	*	*	*	*	*	*	*	*	*	*	*	*	*	*	*	*	*	*	*
8F\	.	8f\L	.	4b-/	.	4dd\	.	2F\	.	(4d\	.	2f\	.	4b-\	.	.	4ff\	4f\	4dd\	.	.
8F\	.	8f\	.	.	.	.	.	.	.	.	.	.	.	.	.	.	.	.	.	.	.
8FF/	.	8f\	.	4an/	.	4ccT\	.	.	.	4c\)	.	.	.	4an\	.	.	4ff\	4f\	4cc\	.	.
8FF/J	.	8f\J	.	.	.	.	.	.	.	.	.	.	.	.	.	.	.	.	.	.	.
*	*	*Xtremolo	*	*	*	*	*	*	*	*	*	*	*	*	*	*	*	*	*	*	*
=51	=51	=51	=51	=51	=51	=51	=51	=51	=51	=51	=51	=51	=51	=51	=51	=51	=51	=51	=51	=51	=51
4BB-/	.	4f\	.	4b-/	.	4b-\	.	4BB-/	-son.	4d\	-son	4f\	son	4b-\	-son	.	4b-/	4f\	4dd\	.	2.ryy
4BB-/	.	4r	.	4r	.	4r	.	4r	.	4r	.	4r	.	4r	.	.	4r	4r	4r	.	.
4r	.	4r	.	4r	.	8r	.	4r	.	4r	.	4r	.	4r	.	.	4r	4r	4r	.	.
!	!	!	!	!	!	!	!LO:DY:a	!	!	!	!	!	!	!	!	!	!	!	!	!	!
.	.	.	.	.	.	8ff\	p	.	.	.	.	.	.	.	.	.	.	.	.	.	.
=52	=52	=52	=52	=52	=52	=52	=52	=52	=52	=52	=52	=52	=52	=52	=52	=52	=52	=52	=52	=52	=52
!	!	!	!	!	!	!	!	!	!	!	!	!	!	!LO:TX:a:t=6	!	!	!LO:TX:a:t=23 pauz.	!LO:TX:a:t=23	!LO:TX:a:t=23. paus.	!	!
!	!	!	!	!LO:TX:t=P:pp=pianis:problem	!LO:DY:a	!	!	!	!	!	!	!	!	!	!	!	!	!	!	!	!
4r	.	4r	.	8g/	pp	16een\LL	.	0.r	.	0.r	.	0.r	.	0.r	.	.	0.r	0.r	0.r	.	2.ryy
.	.	.	.	.	.	16ff\	.	.	.	.	.	.	.	.	.	.	.	.	.	.	.
.	.	.	.	4g/	.	16gg\	.	.	.	.	.	.	.	.	.	.	.	.	.	.	.
.	.	.	.	.	.	16ff\JJ	.	.	.	.	.	.	.	.	.	.	.	.	.	.	.
!	!LO:DY:a	!	!LO:DY:a	!	!	!	!	!	!	!	!	!	!	!	!	!	!	!	!	!	!
4d\	fp	4Bn/	p	.	.	4.ff\	.	.	.	.	.	.	.	.	.	.	.	.	.	.	.
.	.	.	.	4g/	.	.	.	.	.	.	.	.	.	.	.	.	.	.	.	.	.
4Bn\	.	4d\	.	.	.	.	.	.	.	.	.	.	.	.	.	.	.	.	.	.	.
.	.	.	.	[8g/	.	8gg\	.	.	.	.	.	.	.	.	.	.	.	.	.	.	.
=53	=53	=53	=53	=53	=53	=53	=53	=53	=53	=53	=53	=53	=53	=53	=53	=53	=53	=53	=53	=53	=53
.	.	.	.	.	.	8qff/	.	.	.	.	.	.	.	.	.	.	.	.	.	.	.
4r	.	4r	.	8g/]	.	8ee-\L	.	.	.	.	.	.	.	.	.	.	.	.	.	.	2.ryy
.	.	.	.	4g/	.	16dd\L	.	.	.	.	.	.	.	.	.	.	.	.	.	.	.
.	.	.	.	.	.	16cc\JJ	.	.	.	.	.	.	.	.	.	.	.	.	.	.	.
4e-\	.	4e-\	.	.	.	4.cc\	.	.	.	.	.	.	.	.	.	.	.	.	.	.	.
.	.	.	.	4g/	.	.	.	.	.	.	.	.	.	.	.	.	.	.	.	.	.
4c\	.	4c\	.	.	.	.	.	.	.	.	.	.	.	.	.	.	.	.	.	.	.
.	.	.	.	8g/	.	8ee-\	.	.	.	.	.	.	.	.	.	.	.	.	.	.	.
=54	=54	=54	=54	=54	=54	=54	=54	=54	=54	=54	=54	=54	=54	=54	=54	=54	=54	=54	=54	=54	=54
4r	.	4r	.	8f/	.	16dd\LL	.	.	.	.	.	.	.	.	.	.	.	.	.	.	2.ryy
.	.	.	.	.	.	16ee-\	.	.	.	.	.	.	.	.	.	.	.	.	.	.	.
.	.	.	.	4f/	.	16ff\	.	.	.	.	.	.	.	.	.	.	.	.	.	.	.
.	.	.	.	.	.	16ee-\JJ	.	.	.	.	.	.	.	.	.	.	.	.	.	.	.
4c\	.	4An/	.	.	.	4.ee-\	.	.	.	.	.	.	.	.	.	.	.	.	.	.	.
.	.	.	.	4f/	.	.	.	.	.	.	.	.	.	.	.	.	.	.	.	.	.
4An\	.	4c/	.	.	.	.	.	.	.	.	.	.	.	.	.	.	.	.	.	.	.
.	.	.	.	8f/	.	8ff\	.	.	.	.	.	.	.	.	.	.	.	.	.	.	.
=55	=55	=55	=55	=55	=55	=55	=55	=55	=55	=55	=55	=55	=55	=55	=55	=55	=55	=55	=55	=55	=55
4B-\	.	4B-/	.	8f/	.	16ee-\LL	.	.	.	.	.	.	.	.	.	.	.	.	.	.	2.ryy
.	.	.	.	.	.	16dd\	.	.	.	.	.	.	.	.	.	.	.	.	.	.	.
.	.	.	.	4f/	.	16cc\	.	.	.	.	.	.	.	.	.	.	.	.	.	.	.
.	.	.	.	.	.	16b-\JJ	.	.	.	.	.	.	.	.	.	.	.	.	.	.	.
4G\	.	4g\	.	.	.	8b-\	.	.	.	.	.	.	.	.	.	.	.	.	.	.	.
.	.	.	.	4b-/	.	4ee-\	.	.	.	.	.	.	.	.	.	.	.	.	.	.	.
4F\	.	4f\	.	.	.	.	.	.	.	.	.	.	.	.	.	.	.	.	.	.	.
.	.	.	.	8b-/	.	8dd\	.	.	.	.	.	.	.	.	.	.	.	.	.	.	.
=56	=56	=56	=56	=56	=56	=56	=56	=56	=56	=56	=56	=56	=56	=56	=56	=56	=56	=56	=56	=56	=56
4E-\	.	4e-\	.	8b-/	.	16dd\LL	.	0.r	.	0.r	.	0.r	.	1.r	.	.	0.r	0.r	0.r	.	2.ryy
.	.	.	.	.	.	16cc\	.	.	.	.	.	.	.	.	.	.	.	.	.	.	.
.	.	.	.	4b-/	.	16bn\	.	.	.	.	.	.	.	.	.	.	.	.	.	.	.
.	.	.	.	.	.	16cc\JJ	.	.	.	.	.	.	.	.	.	.	.	.	.	.	.
4E-\	.	4e-\	.	.	.	8r	.	.	.	.	.	.	.	.	.	.	.	.	.	.	.
.	.	.	.	4g/	.	8cc\L	.	.	.	.	.	.	.	.	.	.	.	.	.	.	.
4En\	.	4c\	.	.	.	8cc\	.	.	.	.	.	.	.	.	.	.	.	.	.	.	.
.	.	.	.	8g/	.	8b\J	.	.	.	.	.	.	.	.	.	.	.	.	.	.	.
=57	=57	=57	=57	=57	=57	=57	=57	=57	=57	=57	=57	=57	=57	=57	=57	=57	=57	=57	=57	=57	=57
4F\	.	4f\	.	8f/L	.	16b-/LL	.	.	.	.	.	.	.	.	.	.	.	.	.	.	2.ryy
.	.	.	.	.	.	16an/	.	.	.	.	.	.	.	.	.	.	.	.	.	.	.
.	.	.	.	8c/J	.	16g/	.	.	.	.	.	.	.	.	.	.	.	.	.	.	.
.	.	.	.	.	.	16f/JJ	.	.	.	.	.	.	.	.	.	.	.	.	.	.	.
8r	.	8r	.	4An/	.	4f/	.	.	.	.	.	.	.	.	.	.	.	.	.	.	.
8E-X`\L	.	8e-X\L	.	.	.	.	.	.	.	.	.	.	.	.	.	.	.	.	.	.	.
8D`\	.	8d\	.	4r	.	4r	.	.	.	.	.	.	.	.	.	.	.	.	.	.	.
8C`\J	.	8c\J	.	.	.	.	.	.	.	.	.	.	.	.	.	.	.	.	.	.	.
=58	=58	=58	=58	=58	=58	=58	=58	=58	=58	=58	=58	=58	=58	=58	=58	=58	=58	=58	=58	=58	=58
*	*	*tremolo	*	*tremolo	*	*	*	*	*	*	*	*	*	*	*	*	*	*	*	*	*
!LO:TX:t=P:problem=mixed beam	!	!	!	!	!	!LO:TX:a:i:t=Solo	!	!	!	!	!	!	!	!	!	!	!	!	!	!	!
8BB-/L	.	8B-/L	.	8d/L	.	8ff\L	.	.	.	.	.	.	.	8ff\L	Chri-	.	.	.	.	.	2.ryy
8B-\J	.	8B-/	.	8d/	.	8dd\J	.	.	.	.	.	.	.	8dd\J	.	.	.	.	.	.	.
*tremolo	*	*	*	*	*	*	*	*	*	*	*	*	*	*	*	*	*	*	*	*	*
!	!	!	!	!	!	!	!	!	!	!	!	!	!	!LO:TX:a:i:t=Solo	!	!	!	!	!	!	!
8B-\L	.	8B-/	.	8d/	.	4b-\	.	.	.	.	.	.	.	4b-\	-ste	.	.	.	.	.	.
8B-\	.	8B-/	.	8d/	.	.	.	.	.	.	.	.	.	.	.	.	.	.	.	.	.
8B-\	.	8B-/	.	8d/	.	8r	.	.	.	.	.	.	.	8r	.	.	.	.	.	.	.
8B-\J	.	8B-/J	.	8d/J	.	8bb-\	.	.	.	.	.	.	.	8b-\	e-	.	.	.	.	.	.
=59	=59	=59	=59	=59	=59	=59	=59	=59	=59	=59	=59	=59	=59	=59	=59	=59	=59	=59	=59	=59	=59
.	.	.	.	.	.	8qaa-/	.	.	.	.	.	.	.	.	.	.	.	.	.	.	.
8B-\L	.	8B-/L	.	8e-/L	.	8gg\L	.	.	.	.	.	.	.	8gg\L	-lei-	.	.	.	.	.	2.ryy
8B-\J	.	8B-/	.	8e-/J	.	16ff\L	.	.	.	.	.	.	.	16ff\L	.	.	.	.	.	.	.
.	.	.	.	.	.	16gg\JJ	.	.	.	.	.	.	.	16gg\JJ	.	.	.	.	.	.	.
8B-\L	.	8B-/	.	8d/L	.	4ff\	.	.	.	.	.	.	.	4ff\	-son	.	.	.	.	.	.
8B-\	.	8B-/	.	8d/	.	.	.	.	.	.	.	.	.	.	.	.	.	.	.	.	.
8B-\	.	8B-/	.	8d/	.	8r	.	.	.	.	.	.	.	8r	.	.	.	.	.	.	.
8B-\J	.	8B-/J	.	8d/J	.	8bb-\	.	.	.	.	.	.	.	8b-\	e-	.	.	.	.	.	.
=60	=60	=60	=60	=60	=60	=60	=60	=60	=60	=60	=60	=60	=60	=60	=60	=60	=60	=60	=60	=60	=60
.	.	.	.	.	.	8qaa-/	.	.	.	.	.	.	.	.	.	.	.	.	.	.	.
8B-\L	.	8B-/L	.	8e-/L	.	8gg\L	.	0.r	.	0.r	.	0.r	.	8gg\L	-lei-	.	0.r	0.r	0.r	.	2.ryy
8B-\J	.	8B-/	.	8e-/J	.	16ff\L	.	.	.	.	.	.	.	16ff\L	.	.	.	.	.	.	.
.	.	.	.	.	.	16gg\JJ	.	.	.	.	.	.	.	16gg\JJ	.	.	.	.	.	.	.
8B-\L	.	8B-/	.	8d/L	.	4ff\	.	.	.	.	.	.	.	4ff\	-son	.	.	.	.	.	.
8B-\	.	8B-/	.	8d/	.	.	.	.	.	.	.	.	.	.	.	.	.	.	.	.	.
8B-\	.	8B-/	.	8d/	.	8r	.	.	.	.	.	.	.	8r	.	.	.	.	.	.	.
*	*	*	*	*	*	*	*	*	*	*	*	*	*	*	*ij	*	*	*	*	*	*
8B-\J	.	8B-/J	.	8d/J	.	8ff\	.	.	.	.	.	.	.	8ff\	e-	.	.	.	.	.	.
*Xtremolo	*	*	*	*Xtremolo	*	*	*	*	*	*	*	*	*	*	*	*	*	*	*	*	*
=61	=61	=61	=61	=61	=61	=61	=61	=61	=61	=61	=61	=61	=61	=61	=61	=61	=61	=61	=61	=61	=61
2.Bn\	.	8Bn/L	.	4f/	.	4aa-X\	.	.	.	.	.	.	.	(4aa-\	-lei-	.	.	.	.	.	2.ryy
.	.	8Bn/	.	.	.	.	.	.	.	.	.	.	.	.	.	.	.	.	.	.	.
.	.	8Bn/	.	4e-/	.	4gg\	.	.	.	.	.	.	.	4gg\)	.	.	.	.	.	.	.
.	.	8Bn/	.	.	.	.	.	.	.	.	.	.	.	.	.	.	.	.	.	.	.
.	.	8Bn/	.	4d/	.	4ff\	.	.	.	.	.	.	.	4ff\	.	.	.	.	.	.	.
.	.	8Bn/J	.	.	.	.	.	.	.	.	.	.	.	.	.	.	.	.	.	.	.
*	*	*Xtremolo	*	*	*	*	*	*	*	*	*	*	*	*	*	*	*	*	*	*	*
=62	=62	=62	=62	=62	=62	=62	=62	=62	=62	=62	=62	=62	=62	=62	=62	=62	=62	=62	=62	=62	=62
4c\	.	4c\	.	4e-/	.	8ee-\L	.	.	.	.	.	.	.	4ee-\	-son	.	.	.	.	.	2.ryy
.	.	.	.	.	.	8ff\	.	.	.	.	.	.	.	.	.	.	.	.	.	.	.
*	*	*	*	*	*	*	*	*	*	*	*	*	*	*	*Xij	*	*	*	*	*	*
4r	.	4r	.	4r	.	8gg\	.	.	.	.	.	.	.	8r	.	.	.	.	.	.	.
*	*	*	*	*	*	*	*	*	*	*	*	*	*	*	*ij	*	*	*	*	*	*
.	.	.	.	.	.	(8ee-\	.	.	.	.	.	.	.	8ee-\L	e-	.	.	.	.	.	.
4F\	.	4F/	.	4a-/	.	8dd\)	.	.	.	.	.	.	.	8dd\	.	.	.	.	.	.	.
.	.	.	.	.	.	8cc\J	.	.	.	.	.	.	.	8cc\J	.	.	.	.	.	.	.
=63	=63	=63	=63	=63	=63	=63	=63	=63	=63	=63	=63	=63	=63	=63	=63	=63	=63	=63	=63	=63	=63
4G\	.	(8G/L	.	4d/	.	(8bn\L	.	.	.	.	.	.	.	8bn\L	-lei-	.	.	.	.	.	2.ryy
.	.	8An/)	.	.	.	8cc\	.	.	.	.	.	.	.	8cc\J	.	.	.	.	.	.	.
4r	.	8Bn/	.	4r	.	8dd\)	.	.	.	.	.	.	.	4dd\	-son	.	.	.	.	.	.
.	.	8B/	.	.	.	8dd`\	.	.	.	.	.	.	.	.	.	.	.	.	.	.	.
*	*	*	*	*	*	*	*	*	*	*	*	*	*	*	*Xij	*	*	*	*	*	*
4BBn/	.	(8B/	.	4g/	.	8dd`\	.	.	.	.	.	.	.	8r	.	.	.	.	.	.	.
.	.	8d/J)	.	.	.	8ff\J	.	.	.	.	.	.	.	8ff\	e-	.	.	.	.	.	.
=64	=64	=64	=64	=64	=64	=64	=64	=64	=64	=64	=64	=64	=64	=64	=64	=64	=64	=64	=64	=64	=64
4C/	.	4c\	.	4g/	.	8ee-\L	.	0.r	.	0.r	.	0.r	.	8ee-\L	-lei-	.	0.r	0.r	0.r	.	2.ryy
.	.	.	.	.	.	8gg\	.	.	.	.	.	.	.	8gg\	.	.	.	.	.	.	.
4r	.	4r	.	4r	.	8ff\	.	.	.	.	.	.	.	8ff\	.	.	.	.	.	.	.
.	.	.	.	.	.	8ee-\	.	.	.	.	.	.	.	8ee-\	.	.	.	.	.	.	.
4F\	.	4F/	.	4a-/	.	8dd\	.	.	.	.	.	.	.	8dd\	.	.	.	.	.	.	.
.	.	.	.	.	.	8cc\J	.	.	.	.	.	.	.	8cc\J	.	.	.	.	.	.	.
=65	=65	=65	=65	=65	=65	=65	=65	=65	=65	=65	=65	=65	=65	=65	=65	=65	=65	=65	=65	=65	=65
4G\	.	(8G/L	.	4d/	.	(8bn\L	.	.	.	.	.	.	.	8bn\L	.	.	.	.	.	.	2.ryy
.	.	8An/)	.	.	.	8cc\	.	.	.	.	.	.	.	8cc\J	.	.	.	.	.	.	.
4r	.	8Bn`/	.	4r	.	8dd\)	.	.	.	.	.	.	.	4dd\	-son	.	.	.	.	.	.
.	.	8B`/	.	.	.	8dd'\	.	.	.	.	.	.	.	.	.	.	.	.	.	.	.
4BBn/	.	(8B/	.	4g/	.	8dd'\	.	.	.	.	.	.	.	8r	.	.	.	.	.	.	.
.	.	8d/J)	.	.	.	8ff\J	.	.	.	.	.	.	.	8ff\	e-	.	.	.	.	.	.
=66	=66	=66	=66	=66	=66	=66	=66	=66	=66	=66	=66	=66	=66	=66	=66	=66	=66	=66	=66	=66	=66
4C/	.	4c\	.	4g/	.	8ee-\L	.	.	.	.	.	.	.	8ee-\L	-lei-	.	.	.	.	.	2.ryy
.	.	.	.	.	.	8gg\	.	.	.	.	.	.	.	8gg\	.	.	.	.	.	.	.
4r	.	4r	.	4r	.	8ff\	.	.	.	.	.	.	.	8ff\	.	.	.	.	.	.	.
.	.	.	.	.	.	8ee-\	.	.	.	.	.	.	.	8ee-\	.	.	.	.	.	.	.
4r	.	4r	.	4r	.	8dd\	.	.	.	.	.	.	.	8dd\	.	.	.	.	.	.	.
.	.	.	.	.	.	8cc\J	.	.	.	.	.	.	.	8cc\J	.	.	.	.	.	.	.
=67	=67	=67	=67	=67	=67	=67	=67	=67	=67	=67	=67	=67	=67	=67	=67	=67	=67	=67	=67	=67	=67
8r	.	2.en\	.	2.g/	.	8cc\L	.	.	.	.	.	.	.	8cc\L	.	.	.	.	.	.	2.ryy
8G\L	.	.	.	.	.	8b-X\J	.	.	.	.	.	.	.	8b-X\J	.	.	.	.	.	.	.
8F\	.	.	.	.	.	2b-\	.	.	.	.	.	.	.	2b-\	.	.	.	.	.	.	.
8En\	.	.	.	.	.	.	.	.	.	.	.	.	.	.	.	.	.	.	.	.	.
8D\	.	.	.	.	.	.	.	.	.	.	.	.	.	.	.	.	.	.	.	.	.
8C\J	.	.	.	.	.	.	.	.	.	.	.	.	.	.	.	.	.	.	.	.	.
=68	=68	=68	=68	=68	=68	=68	=68	=68	=68	=68	=68	=68	=68	=68	=68	=68	=68	=68	=68	=68	=68
!	!	!	!	!	!	!LO:TX:t=P:problem=mixed beam	!	!	!	!	!	!	!	!	!	!	!	!	!	!	!
4F\	.	4f\	.	4c/	.	8an/L	.	0.r	.	0.r	.	0.r	.	4an\	-son	.	0.r	0.r	0.r	.	2.ryy
.	.	.	.	.	.	8ccc\	.	.	.	.	.	.	.	.	.	.	.	.	.	.	.
4r	.	4r	.	4r	.	8bb-\	.	.	.	.	.	.	.	4r	.	.	.	.	.	.	.
.	.	.	.	.	.	8aa-\	.	.	.	.	.	.	.	.	.	.	.	.	.	.	.
4r	.	4r	.	4r	.	8gg\	.	.	.	.	.	.	.	4r	.	.	.	.	.	.	.
.	.	.	.	.	.	8ff\J	.	.	.	.	.	.	.	.	.	.	.	.	.	.	.
=69	=69	=69	=69	=69	=69	=69	=69	=69	=69	=69	=69	=69	=69	=69	=69	=69	=69	=69	=69	=69	=69
8r	.	2.An/	.	2.f/	.	8ff\L	.	.	.	.	.	.	.	2.ee-\	e-	.	.	.	.	.	2.ryy
8c\L	.	.	.	.	.	8ee-X\J	.	.	.	.	.	.	.	.	.	.	.	.	.	.	.
8B-\	.	.	.	.	.	2ee-\	.	.	.	.	.	.	.	.	.	.	.	.	.	.	.
8An\	.	.	.	.	.	.	.	.	.	.	.	.	.	.	.	.	.	.	.	.	.
8G\	.	.	.	.	.	.	.	.	.	.	.	.	.	.	.	.	.	.	.	.	.
8F\J	.	.	.	.	.	.	.	.	.	.	.	.	.	.	.	.	.	.	.	.	.
=70	=70	=70	=70	=70	=70	=70	=70	=70	=70	=70	=70	=70	=70	=70	=70	=70	=70	=70	=70	=70	=70
4B-\	.	4B-/	.	4f/	.	8dd\L	.	.	.	.	.	.	.	8dd\L	-lei-	.	.	.	.	.	2.ryy
.	.	.	.	.	.	8ff\	.	.	.	.	.	.	.	8ff\J	.	.	.	.	.	.	.
4r	.	4r	.	4r	.	8ee-\	.	.	.	.	.	.	.	8ee-\L	.	.	.	.	.	.	.
.	.	.	.	.	.	8dd\	.	.	.	.	.	.	.	8dd\	.	.	.	.	.	.	.
4r	.	4r	.	4r	.	8cc\	.	.	.	.	.	.	.	8cc\	.	.	.	.	.	.	.
.	.	.	.	.	.	8b-\J	.	.	.	.	.	.	.	8b-\J	.	.	.	.	.	.	.
=71	=71	=71	=71	=71	=71	=71	=71	=71	=71	=71	=71	=71	=71	=71	=71	=71	=71	=71	=71	=71	=71
8r	.	2.d\	.	2.f/	.	8b-/L	.	.	.	.	.	.	.	8b-\L	.	.	.	.	.	.	2.ryy
8F\L	.	.	.	.	.	8a-X/J	.	.	.	.	.	.	.	8a-X\J	.	.	.	.	.	.	.
8E-\	.	.	.	.	.	2a-/	.	.	.	.	.	.	.	2a-\	.	.	.	.	.	.	.
8D\	.	.	.	.	.	.	.	.	.	.	.	.	.	.	.	.	.	.	.	.	.
8C\	.	.	.	.	.	.	.	.	.	.	.	.	.	.	.	.	.	.	.	.	.
8BB-\J	.	.	.	.	.	.	.	.	.	.	.	.	.	.	.	.	.	.	.	.	.
=72	=72	=72	=72	=72	=72	=72	=72	=72	=72	=72	=72	=72	=72	=72	=72	=72	=72	=72	=72	=72	=72
4E-\	.	4e-X\	.	8e-/	.	8g/	.	1.r	.	1.r	.	1.r	.	4g\	-son	.	1.r	1.r	1.r	.	2.ryy
.	.	.	.	4e-/	.	4e-/	.	.	.	.	.	.	.	.	.	.	.	.	.	.	.
4c\	.	4c\	.	.	.	.	.	.	.	.	.	.	.	4r	.	.	.	.	.	.	.
.	.	.	.	4e-/	.	4a-/	.	.	.	.	.	.	.	.	.	.	.	.	.	.	.
4B-\	.	4B-\	.	.	.	.	.	.	.	.	.	.	.	4r	.	.	.	.	.	.	.
.	.	.	.	[8e-/	.	8g/	.	.	.	.	.	.	.	.	.	.	.	.	.	.	.
=73	=73	=73	=73	=73	=73	=73	=73	=73	=73	=73	=73	=73	=73	=73	=73	=73	=73	=73	=73	=73	=73
4A-\	.	4A-/	.	8e-/]	.	16g/LL	.	.	.	.	.	.	.	4r	.	.	.	.	.	.	2.ryy
.	.	.	.	.	.	16f/	.	.	.	.	.	.	.	.	.	.	.	.	.	.	.
.	.	.	.	4f/	.	16en/	.	.	.	.	.	.	.	.	.	.	.	.	.	.	.
.	.	.	.	.	.	16f/JJ	.	.	.	.	.	.	.	.	.	.	.	.	.	.	.
4A-\	.	4c/	.	.	.	8r	.	.	.	.	.	.	.	4r	.	.	.	.	.	.	.
!	!	!	!	!	!	!LO:TX:t=P:problem=mixed beam	!	!	!	!	!	!	!	!	!	!	!	!	!	!	!
.	.	.	.	4f/	.	(8f/L	.	.	.	.	.	.	.	.	.	.	.	.	.	.	.
4An\	.	4c/	.	.	.	8ee-/	.	.	.	.	.	.	.	4ee-\	e-	.	.	.	.	.	.
.	.	.	.	8f/	.	8ee-/J)	.	.	.	.	.	.	.	.	.	.	.	.	.	.	.
=74	=74	=74	=74	=74	=74	=74	=74	=74	=74	=74	=74	=74	=74	=74	=74	=74	=74	=74	=74	=74	=74
4B-\	.	4B-/	.	8f/L	.	16ee-\LL	.	2.r	.	2.r	.	2.r	.	16ee-\LL	-lei-	.	2.r	2.r	2.r	.	2.ryy
.	.	.	.	.	.	16dd\	.	.	.	.	.	.	.	16dd\	.	.	.	.	.	.	.
.	.	.	.	16e-/L	.	16cc\	.	.	.	.	.	.	.	16cc\	.	.	.	.	.	.	.
.	.	.	.	16d/JJ	.	16b-\JJ	.	.	.	.	.	.	.	16b-\JJ	.	.	.	.	.	.	.
8r	.	8b-\L	.	4d/	.	4b-\	.	.	.	.	.	.	.	4b-\	-son	.	.	.	.	.	.
8A-X`\L	.	8a-\	.	.	.	.	.	.	.	.	.	.	.	.	.	.	.	.	.	.	.
8G`\	.	8g\	.	4r	.	4r	.	.	.	.	.	.	.	4r	.	.	.	.	.	.	.
8F`\J	.	8f\J	.	.	.	.	.	.	.	.	.	.	.	.	.	.	.	.	.	.	.
=75	=75	=75	=75	=75	=75	=75	=75	=75	=75	=75	=75	=75	=75	=75	=75	=75	=75	=75	=75	=75	=75
*tremolo	*	*tremolo	*	*tremolo	*	*	*	*	*	*	*	*	*	*	*	*	*	*	*	*	*
!	!	!	!	!LO:TX:t=P:problem=tremolo na dwóch nutach z kropką	!	!	!	!	!	!	!	!	!	!LO:TX:t=P:Tutti=T.:problem	!	!	!	!	!	!	!
!LO:TX:a:i:t=Tutti	!	!LO:TX:t=P:f=f:problem	!	!LO:TX:t=P:f=for.:problem	!LO:DY:a	!LO:TX:a:i:t=Tutti	!	!	!	!	!	!	!	!LO:TX:a:i:t=Tutti	!	!	!	!	!	!	!
8E-\L	.	8e-\L	f	16B-/LL	f	8ee-L 8g 8G/	.	2E-\	Ky-	2e-\	Ky-	2g\	Ky-	2b-\	Ky-	f	2g/	2e-\	2g/	.	2.ryy
.	.	.	.	16g/	.	.	.	.	.	.	.	.	.	.	.	.	.	.	.	.	.
8E-\	.	8e-\	.	16B-/	.	32e-/LL	.	.	.	.	.	.	.	.	.	.	.	.	.	.	.
.	.	.	.	.	.	32f/	.	.	.	.	.	.	.	.	.	.	.	.	.	.	.
.	.	.	.	16g/	.	32g/	.	.	.	.	.	.	.	.	.	.	.	.	.	.	.
.	.	.	.	.	.	32f/JJJ	.	.	.	.	.	.	.	.	.	.	.	.	.	.	.
!	!	!	!	!	!	!LO:TX:t=P:problem=mixed beam	!	!	!	!	!	!	!	!	!	!	!	!	!	!	!
8E-\	.	8e-\	.	16B-/	.	8e-/L	.	.	.	.	.	.	.	.	.	.	.	.	.	.	.
.	.	.	.	16g/	.	.	.	.	.	.	.	.	.	.	.	.	.	.	.	.	.
8E-\	.	8e-\	.	16B-/	.	8b-/	.	.	.	.	.	.	.	.	.	.	.	.	.	.	.
.	.	.	.	16g/	.	.	.	.	.	.	.	.	.	.	.	.	.	.	.	.	.
8E-\	.	8e-\	.	16B-/	.	8ee-\	.	4E-\	-ri-	4e-\	-rie	4g\	-ri-	4b-\	-ri-	.	4ee-\	4g\	4ee-\	.	.
.	.	.	.	16g/	.	.	.	.	.	.	.	.	.	.	.	.	.	.	.	.	.
8E-\J	.	8e-\J	.	16B-/	.	8gg\J	.	.	.	.	.	.	.	.	.	.	.	.	.	.	.
.	.	.	.	16g/JJ	.	.	.	.	.	.	.	.	.	.	.	.	.	.	.	.	.
=76	=76	=76	=76	=76	=76	=76	=76	=76	=76	=76	=76	=76	=76	=76	=76	=76	=76	=76	=76	=76	=76
!	!	!	!	!LO:TX:t=P:problem=tremolo na dwóch nutach z kropką	!	!	!	!	!	!	!	!	!	!	!	!	!	!	!	!	!
8D\L	.	8d\L	.	16B-/LL	.	16gg\LL	.	2D/	-e	2f\	.	2a-X\	-e	2b-\	-e	.	2b-/	2f\	2dd\	.	2.ryy
.	.	.	.	16f/	.	16ff\	.	.	.	.	.	.	.	.	.	.	.	.	.	.	.
8D\	.	8d\	.	16B-/	.	16een\	.	.	.	.	.	.	.	.	.	.	.	.	.	.	.
.	.	.	.	16f/	.	16ff\JJ	.	.	.	.	.	.	.	.	.	.	.	.	.	.	.
8D\	.	8d\	.	16B-/	.	16r	.	.	.	.	.	.	.	.	.	.	.	.	.	.	.
.	.	.	.	16f/	.	16aa-X\LL	.	.	.	.	.	.	.	.	.	.	.	.	.	.	.
8D\J	.	8d\	.	16B-/	.	16gg\	.	.	.	.	.	.	.	.	.	.	.	.	.	.	.
.	.	.	.	16f/	.	16aa-\JJ	.	.	.	.	.	.	.	.	.	.	.	.	.	.	.
8BB-/L	.	8d\	.	16B-/	.	16bb-\LL	.	4C/	e-	4f\	e-	4a-\	e-	4b-\	e-	.	4ff\	4a-\	4ff\	.	.
.	.	.	.	16f/	.	16aa-\	.	.	.	.	.	.	.	.	.	.	.	.	.	.	.
8BB-/J	.	8d\J	.	16B-/	.	16gg\	.	.	.	.	.	.	.	.	.	.	.	.	.	.	.
.	.	.	.	16f/JJ	.	16aa-\JJ	.	.	.	.	.	.	.	.	.	.	.	.	.	.	.
=77	=77	=77	=77	=77	=77	=77	=77	=77	=77	=77	=77	=77	=77	=77	=77	=77	=77	=77	=77	=77	=77
!	!	!	!	!LO:TX:t=P:problem=tremolo na dwóch nutach z kropką	!	!	!	!	!	!	!	!	!	!	!	!	!	!	!	!	!
8E-\L	.	8e-\L	.	16B-/LL	.	8ee-L 8g 8G/	.	2.E-\	-lei-	2.e-\	-lei-	2.g\	-lei-	2.b-\	-lei-	.	2.ee-\	2.g\	2.ee-\	.	2.ryy
.	.	.	.	16g/	.	.	.	.	.	.	.	.	.	.	.	.	.	.	.	.	.
8E-\	.	8e-\	.	16B-/	.	32e-/LL	.	.	.	.	.	.	.	.	.	.	.	.	.	.	.
.	.	.	.	.	.	32f/	.	.	.	.	.	.	.	.	.	.	.	.	.	.	.
.	.	.	.	16g/	.	32g/	.	.	.	.	.	.	.	.	.	.	.	.	.	.	.
.	.	.	.	.	.	32f/JJJ	.	.	.	.	.	.	.	.	.	.	.	.	.	.	.
!	!	!	!	!	!	!LO:TX:t=P:problem=mixed beam	!	!	!	!	!	!	!	!	!	!	!	!	!	!	!
8E-\	.	8e-\	.	16B-/	.	8e-/L	.	.	.	.	.	.	.	.	.	.	.	.	.	.	.
.	.	.	.	16g/	.	.	.	.	.	.	.	.	.	.	.	.	.	.	.	.	.
8E-\	.	8e-\	.	16B-/	.	8b-/	.	.	.	.	.	.	.	.	.	.	.	.	.	.	.
.	.	.	.	16g/	.	.	.	.	.	.	.	.	.	.	.	.	.	.	.	.	.
8E-\	.	8e-\	.	16B-/	.	8ee-\	.	.	.	.	.	.	.	.	.	.	.	.	.	.	.
.	.	.	.	16g/	.	.	.	.	.	.	.	.	.	.	.	.	.	.	.	.	.
8E-\J	.	8e-\J	.	16B-/	.	8gg\J	.	.	.	.	.	.	.	.	.	.	.	.	.	.	.
.	.	.	.	16g/JJ	.	.	.	.	.	.	.	.	.	.	.	.	.	.	.	.	.
=78	=78	=78	=78	=78	=78	=78	=78	=78	=78	=78	=78	=78	=78	=78	=78	=78	=78	=78	=78	=78	=78
!	!	!	!	!LO:TX:t=P:problem=tremolo na dwóch nutach z kropką	!	!	!	!	!	!	!	!	!	!	!	!	!	!	!	!	!
8D\L	.	8d\L	.	16B-/LL	.	16gg\LL	.	2D/	.	2.f\	.	2f\	.	2.b-\	.	.	2b-/	2f\	2ff\	.	2.ryy
.	.	.	.	16f/	.	16ff\	.	.	.	.	.	.	.	.	.	.	.	.	.	.	.
8D\	.	8d\	.	16B-/	.	16ee-\	.	.	.	.	.	.	.	.	.	.	.	.	.	.	.
.	.	.	.	16f/	.	16ff\JJ	.	.	.	.	.	.	.	.	.	.	.	.	.	.	.
8D\	.	8d\	.	16B-/	.	16r	.	.	.	.	.	.	.	.	.	.	.	.	.	.	.
.	.	.	.	16f/	.	16aa-X\LL	.	.	.	.	.	.	.	.	.	.	.	.	.	.	.
8D\J	.	8d\	.	16B-/	.	16gg\	.	.	.	.	.	.	.	.	.	.	.	.	.	.	.
.	.	.	.	16f/	.	16aa-\JJ	.	.	.	.	.	.	.	.	.	.	.	.	.	.	.
8BB-/L	.	8d\	.	16B-/	.	16bb-\LL	.	4BB-/	.	.	.	4a-\	.	.	.	.	4ff\	4a-\	4ff\	.	.
.	.	.	.	16f/	.	16aa-\	.	.	.	.	.	.	.	.	.	.	.	.	.	.	.
8BB-/J	.	8d\J	.	16B-/	.	16gg\	.	.	.	.	.	.	.	.	.	.	.	.	.	.	.
.	.	.	.	16f/JJ	.	16aa-\JJ	.	.	.	.	.	.	.	.	.	.	.	.	.	.	.
=79	=79	=79	=79	=79	=79	=79	=79	=79	=79	=79	=79	=79	=79	=79	=79	=79	=79	=79	=79	=79	=79
2E-\	.	8e-\L	.	8g/L	.	16gg\LL	.	4E-\	-son	4e-\	-son	4g\	-son	4b-\	-son	.	4ee-\	4g\	4ee-\	.	2.ryy
.	.	.	.	.	.	16aa-\	.	.	.	.	.	.	.	.	.	.	.	.	.	.	.
.	.	8e-\	.	8g/	.	16gg\	.	.	.	.	.	.	.	.	.	.	.	.	.	.	.
.	.	.	.	.	.	16aa-\JJ	.	.	.	.	.	.	.	.	.	.	.	.	.	.	.
.	.	8e-\	.	8g/	.	16bb-\LL	.	4r	.	4r	.	4r	.	4r	.	.	4r	4r	4r	.	.
.	.	.	.	.	.	16aa-\	.	.	.	.	.	.	.	.	.	.	.	.	.	.	.
.	.	8e-\J	.	8g/J	.	16gg\	.	.	.	.	.	.	.	.	.	.	.	.	.	.	.
.	.	.	.	.	.	32ff\L	.	.	.	.	.	.	.	.	.	.	.	.	.	.	.
.	.	.	.	.	.	32ee-\JJJ	.	.	.	.	.	.	.	.	.	.	.	.	.	.	.
*	*	*	*	*Xtremolo	*	*	*	*	*	*	*	*	*	*	*	*	*	*	*	*	*
*	*	*	*	*	*	*	*	*	*	*	*ij	*	*	*	*ij	*	*	*	*	*	*
8G\L	.	8G/L	.	8b-/L	.	16dd\LL	.	4G\	e-	4B-\	e-	4e-\	e-	4ee-\	e-	.	4r	4r	4r	.	.
.	.	.	.	.	.	16ee-\	.	.	.	.	.	.	.	.	.	.	.	.	.	.	.
8G\J	.	8G/J	.	8cc/J	.	16dd\	.	.	.	.	.	.	.	.	.	.	.	.	.	.	.
.	.	.	.	.	.	16ee-\JJ	.	.	.	.	.	.	.	.	.	.	.	.	.	.	.
=80	=80	=80	=80	=80	=80	=80	=80	=80	=80	=80	=80	=80	=80	=80	=80	=80	=80	=80	=80	=80	=80
*	*	*	*	*tremolo	*	*	*	*	*	*	*	*	*	*	*	*	*	*	*	*	*
8A-\L	.	8A-/L	.	8e-/L	.	8cc\L	.	2.A-X\	-lei-	2.c\	-le-	2.e-\	-lei-	2.cc\	-lei-	.	2.r	2.r	2.cc\	.	2.ryy
8A-\	.	8A-/	.	8e-/	.	16cc\L	.	.	.	.	.	.	.	.	.	.	.	.	.	.	.
.	.	.	.	.	.	16b-\JJ	.	.	.	.	.	.	.	.	.	.	.	.	.	.	.
8A-\	.	8A-/	.	8e-/	.	8cc\L	.	.	.	.	.	.	.	.	.	.	.	.	.	.	.
8A-\J	.	8A-/J	.	8e-/	.	8cc\	.	.	.	.	.	.	.	.	.	.	.	.	.	.	.
4ryy	.	8c\L	.	8e-/	.	8dd\	.	.	.	.	.	.	.	.	.	.	.	.	.	.	.
.	.	8c\J	.	8e-/J	.	8ee-\J	.	.	.	.	.	.	.	.	.	.	.	.	.	.	.
*	*	*	*	*Xtremolo	*	*	*	*	*	*	*	*	*	*	*	*	*	*	*	*	*
=81	=81	=81	=81	=81	=81	=81	=81	=81	=81	=81	=81	=81	=81	=81	=81	=81	=81	=81	=81	=81	=81
!	!	!	!	!	!	!LO:TX:t=P:problem=mixed beam	!	!	!	!	!	!	!	!	!	!	!	!	!	!	!
8An\L	.	8c\L	.	8f/	.	16f/LL	.	2An\	.	2.c\	-i-	2.f\	.	2.ee-\	.	.	2.ff\	2.f\	2.cc\	.	2.ryy
.	.	.	.	.	.	16ee-/	.	.	.	.	.	.	.	.	.	.	.	.	.	.	.
8An\	.	8c\	.	4f/	.	16f/	.	.	.	.	.	.	.	.	.	.	.	.	.	.	.
.	.	.	.	.	.	16ee-/JJ	.	.	.	.	.	.	.	.	.	.	.	.	.	.	.
!	!	!	!	!	!	!LO:TX:t=P:problem=mixed beam	!	!	!	!	!	!	!	!	!	!	!	!	!	!	!
8An\	.	8c\	.	.	.	8f/L	.	.	.	.	.	.	.	.	.	.	.	.	.	.	.
8An\	.	8c\	.	4f/	.	8ee-\	.	.	.	.	.	.	.	.	.	.	.	.	.	.	.
8An\	.	8c\	.	.	.	8f/	.	4ryy	.	.	.	.	.	.	.	.	.	.	.	.	.
8An\J	.	8c\J	.	8f/	.	8ee-\J	.	.	.	.	.	.	.	.	.	.	.	.	.	.	.
*Xtremolo	*	*Xtremolo	*	*	*	*	*	*	*	*	*	*	*	*	*	*	*	*	*	*	*
=82	=82	=82	=82	=82	=82	=82	=82	=82	=82	=82	=82	=82	=82	=82	=82	=82	=82	=82	=82	=82	=82
4B-\	.	4B-/	.	4f/	.	4dd\	.	4B-\	-son	4B-\	-son	4f\	-son	4dd\	-son	.	4ff\	4f\	4b-\	.	2.ryy
*	*	*	*	*	*	*	*	*	*	*	*Xij	*	*	*	*Xij	*	*	*	*	*	*
4r	.	4r	.	8r	.	4r	.	4r	.	4r	.	4r	.	4r	.	.	8r	8r	4r	.	.
!	!	!	!	!	!LO:DY:a	!	!	!	!	!	!	!	!	!	!	!	!	!	!	!	!
.	.	.	.	8B-/L	p	.	.	.	.	.	.	.	.	.	.	.	8b-/L	8B-/L	.	.	.
4r	.	4r	.	8B-/	.	4r	.	4r	.	4r	.	4r	.	4r	.	.	8b-/	8B-/	4r	.	.
.	.	.	.	8B-/J	.	.	.	.	.	.	.	.	.	.	.	.	8b-/J	8B-/J	.	.	.
=83	=83	=83	=83	=83	=83	=83	=83	=83	=83	=83	=83	=83	=83	=83	=83	=83	=83	=83	=83	=83	=83
!	!	!	!	!	!	!	!	!	!	!	!	!	!	!	!	!	!	!	!LO:TX:a:t=2.	!	!
!LO:TX:b:i:t=Violone	!LO:DY:a	!	!	!	!	!	!LO:DY:a	!	!	!	!	!	!	!	!	!	!	!	!	!	!
4r	p	4r	.	8B-/	.	4.b-\	p	0.r	.	0.r	.	1.r	.	1.r	.	.	4b-/	4B-/	1.r	.	2.ryy
.	.	.	.	4B-/	.	.	.	.	.	.	.	.	.	.	.	.	.	.	.	.	.
!	!	!LO:TX:t=P:p=p:problem	!LO:DY:a	!	!	!	!	!	!	!	!	!	!	!	!	!	!	!	!	!	!
4G\	.	4e-\	p	.	.	.	.	.	.	.	.	.	.	.	.	.	4r	4r	.	.	.
.	.	.	.	4B-/	.	16a-\LL	.	.	.	.	.	.	.	.	.	.	.	.	.	.	.
.	.	.	.	.	.	16b-\JJ	.	.	.	.	.	.	.	.	.	.	.	.	.	.	.
4E-\	.	4g\	.	.	.	8cc\L	.	.	.	.	.	.	.	.	.	.	4r	4r	.	.	.
.	.	.	.	[8B-/	.	8g\J	.	.	.	.	.	.	.	.	.	.	.	.	.	.	.
=84	=84	=84	=84	=84	=84	=84	=84	=84	=84	=84	=84	=84	=84	=84	=84	=84	=84	=84	=84	=84	=84
!	!	!	!	!	!	!	!	!	!	!	!	!	!	!	!	!	!	!LO:TX:t=P:problem=błędnie cyfra 6 nad pauzami, a pauz jest 5 taktów	!	!	!
!	!	!	!	!	!	!	!	!	!	!	!	!	!	!	!	!	!	!LO:TX:a:t=6	!	!	!
4r	.	4r	.	8B-/]	.	16b-/LL	.	.	.	.	.	.	.	.	.	.	0.r	0.r	.	.	2.ryy
.	.	.	.	.	.	16a-/	.	.	.	.	.	.	.	.	.	.	.	.	.	.	.
.	.	.	.	4B-/	.	16g/	.	.	.	.	.	.	.	.	.	.	.	.	.	.	.
.	.	.	.	.	.	16f/JJ	.	.	.	.	.	.	.	.	.	.	.	.	.	.	.
4F\	.	4d\	.	.	.	4.f/	.	.	.	.	.	.	.	.	.	.	.	.	.	.	.
.	.	.	.	4B-/	.	.	.	.	.	.	.	.	.	.	.	.	.	.	.	.	.
4BB-/	.	4f\	.	.	.	.	.	.	.	.	.	.	.	.	.	.	.	.	.	.	.
.	.	.	.	[8B-/	.	8a-/	.	.	.	.	.	.	.	.	.	.	.	.	.	.	.
=85	=85	=85	=85	=85	=85	=85	=85	=85	=85	=85	=85	=85	=85	=85	=85	=85	=85	=85	=85	=85	=85
!	!	!	!	!	!	!	!	!	!	!	!	!	!	!LO:TX:t=P:p=po:problem	!	!LO:DY:a	!	!	!LO:TX:t=P:p=piano.:problem	!LO:DY:a	!
4r	.	4r	.	8B-/]	.	8g/	.	.	.	.	.	4.g\	Ky-	4.b-\	Ky-	p	.	.	2.b-\	p	2.ryy
.	.	.	.	4B-/	.	4b-/	.	.	.	.	.	.	.	.	.	.	.	.	.	.	.
4G\	.	4e-\	.	.	.	.	.	.	.	.	.	.	.	.	.	.	.	.	.	.	.
.	.	.	.	4B-/	.	16a-/LL	.	.	.	.	.	16f\LL	-ri-	16a-\LL	-ri-	.	.	.	.	.	.
.	.	.	.	.	.	16b-/JJ	.	.	.	.	.	16g\JJ	-e	16b-\JJ	.	.	.	.	.	.	.
4E-\	.	4g\	.	.	.	8cc/L	.	.	.	.	.	8a-\	.	8cc\	-e	.	.	.	.	.	.
.	.	.	.	[8B-/	.	8g/J	.	.	.	.	.	8e-\	e-	8g\	e-	.	.	.	.	.	.
=86	=86	=86	=86	=86	=86	=86	=86	=86	=86	=86	=86	=86	=86	=86	=86	=86	=86	=86	=86	=86	=86
.	.	.	.	.	.	.	.	.	.	.	.	8qqg/	.	8qb-/	.	.	.	.	.	.	.
4r	.	4r	.	8B-/]	.	16b-/LL	.	.	.	.	.	8f\L	-lei-	8a-\L	-lei-	.	.	.	2.b-\	.	2.ryy
.	.	.	.	.	.	16a-X/	.	.	.	.	.	.	.	.	.	.	.	.	.	.	.
.	.	.	.	4B-/	.	16g/	.	.	.	.	.	16e-\L	.	16g\L	.	.	.	.	.	.	.
.	.	.	.	.	.	16f/JJ	.	.	.	.	.	16d\JJ	.	16f\JJ	.	.	.	.	.	.	.
4F\	.	4d\	.	.	.	4.f/	.	.	.	.	.	4d\	-son	4f/	-son	.	.	.	.	.	.
.	.	.	.	4B-/	.	.	.	.	.	.	.	.	.	.	.	.	.	.	.	.	.
4BB-/	.	4d\	.	.	.	.	.	.	.	.	.	4r	.	4r	.	.	.	.	.	.	.
.	.	.	.	8B-/	.	8a-/	.	.	.	.	.	.	.	.	.	.	.	.	.	.	.
=87	=87	=87	=87	=87	=87	=87	=87	=87	=87	=87	=87	=87	=87	=87	=87	=87	=87	=87	=87	=87	=87
4E-\	.	4e-\	.	8B-/	.	8g/L	.	1.r	.	1.r	.	1.r	.	1.r	.	.	.	.	8b-\	.	2.ryy
.	.	.	.	4e-/	.	8b-/	.	.	.	.	.	.	.	.	.	.	.	.	8r	.	.
8C/L	.	8c/L	.	.	.	8a-/	.	.	.	.	.	.	.	.	.	.	.	.	4r	.	.
8BB-/	.	8B-/	.	4e-/	.	8g/	.	.	.	.	.	.	.	.	.	.	.	.	.	.	.
8AA-/	.	8A-/	.	.	.	8f/	.	.	.	.	.	.	.	.	.	.	.	.	4r	.	.
8AAn/J	.	8An/J	.	8c/	.	8e-/J	.	.	.	.	.	.	.	.	.	.	.	.	.	.	.
=88	=88	=88	=88	=88	=88	=88	=88	=88	=88	=88	=88	=88	=88	=88	=88	=88	=88	=88	=88	=88	=88
!	!	!	!	!	!	!	!	!	!	!	!	!	!	!	!	!	!	!	!LO:TX:a:t=1.	!	!
4BB-/	.	4B-/	.	16B-/LL	.	16d/LL	.	.	.	.	.	.	.	.	.	.	2.r	2.r	2.r	.	2.ryy
.	.	.	.	16d/	.	16f/	.	.	.	.	.	.	.	.	.	.	.	.	.	.	.
.	.	.	.	16c/	.	16e-/	.	.	.	.	.	.	.	.	.	.	.	.	.	.	.
.	.	.	.	16e-/JJ	.	16g/JJ	.	.	.	.	.	.	.	.	.	.	.	.	.	.	.
4r	.	4r	.	16d/LL	.	16f/LL	.	.	.	.	.	.	.	.	.	.	.	.	.	.	.
.	.	.	.	16f/	.	16a-/	.	.	.	.	.	.	.	.	.	.	.	.	.	.	.
.	.	.	.	16e-/	.	16g/	.	.	.	.	.	.	.	.	.	.	.	.	.	.	.
.	.	.	.	16g/JJ	.	16b-/JJ	.	.	.	.	.	.	.	.	.	.	.	.	.	.	.
4r	.	4r	.	16f/LL	.	16a-/LL	.	.	.	.	.	.	.	.	.	.	.	.	.	.	.
.	.	.	.	16a-/	.	16cc/	.	.	.	.	.	.	.	.	.	.	.	.	.	.	.
.	.	.	.	16f/	.	16b-/	.	.	.	.	.	.	.	.	.	.	.	.	.	.	.
.	.	.	.	16a-/JJ	.	16dd/JJ	.	.	.	.	.	.	.	.	.	.	.	.	.	.	.
=89	=89	=89	=89	=89	=89	=89	=89	=89	=89	=89	=89	=89	=89	=89	=89	=89	=89	=89	=89	=89	=89
*	*	*tremolo	*	*	*	*	*	*	*	*	*	*	*	*	*	*	*	*	*	*	*
!LO:TX:b:i:t=org	!	!	!	!	!	!	!	!	!	!	!	!	!	!	!	!	!	!	!	!	!
!LO:TX:t=P:Tutti=T:problem	!	!	!	!	!	!	!	!	!	!	!	!	!	!	!	!	!	!	!LO:TX:t=P:f=for.:problem	!	!
!LO:TX:a:i:t=Tutti	!	!	!	!	!	!LO:TX:a:i:t=Tutti	!	!	!	!	!	!	!	!LO:TX:t=P:f=f:problem	!	!	!	!	!	!	!
8E-\L	.	8g\L	f	16g/LL	.	8ee-\L	.	8E-\	Ky-	8.e-\	Ky-	8.e-\	Ky-	8b-\	Ky-	f	2g/	2e-\	2.b-\	f	2.ryy
.	.	.	.	16b-/	f	.	.	.	.	.	.	.	.	.	.	.	.	.	.	.	.
8G\J	.	8g\	.	16b-/	.	16ee-\L	.	8G\	-ri-	.	.	.	.	8b-\	-ri-	.	.	.	.	.	.
.	.	.	.	16b-/JJ	.	16ff\JJ	.	.	.	16e-\	-ri-	16e-\	-ri-	.	.	.	.	.	.	.	.
*	*	*	*	*tremolo	*	*	*	*	*	*	*	*	*	*	*	*	*	*	*	*	*
8r	.	8g\	.	16b-\LL	.	8ee-\L	.	8G\	-e	8e-\	-e	8e-\	-e	4b-\	-e	.	.	.	.	.	.
.	.	.	.	16b-\	.	.	.	.	.	.	.	.	.	.	.	.	.	.	.	.	.
8G\L	.	8g\J	.	16b-\	.	8ee-\	.	8G\	e-	8e-\	e-	8e-\L	e-	.	.	.	.	.	.	.	.
.	.	.	.	16b-\	.	.	.	.	.	.	.	.	.	.	.	.	.	.	.	.	.
*	*	*Xtremolo	*	*	*	*	*	*	*	*	*	*	*	*	*	*	*	*	*	*	*
8F\	.	8f\L	.	16b-\	.	8ff\	.	8F\L	-lei-	8d\L	-lei-	8f\	.	4b-\	e-	.	8b-/L	8f\L	.	.	.
.	.	.	.	16b-\	.	.	.	.	.	.	.	.	.	.	.	.	.	.	.	.	.
8E-\J	.	8e-\J	.	16b-\	.	8gg\J	.	8E-\J	.	8e-\J	.	8g\J	.	.	.	.	8ee-/J	8g\J	.	.	.
.	.	.	.	16b-\JJ	.	.	.	.	.	.	.	.	.	.	.	.	.	.	.	.	.
=90	=90	=90	=90	=90	=90	=90	=90	=90	=90	=90	=90	=90	=90	=90	=90	=90	=90	=90	=90	=90	=90
*	*	*	*	*	*	*^	*	*	*	*	*	*	*	*	*	*	*	*	*	*	*
*	*	*tremolo	*	*	*	*	*	*	*	*	*	*	*	*	*	*	*	*	*	*	*	*
8D/L	.	8f\L	.	16b-\LL	.	4aa-/	4b-\	.	2.D\	.	2.f\	.	2.a-\	-lei-	2.b-\	-lei-	.	2.ff\	2.a-\	2.b-\	.	2.ryy
.	.	.	.	16b-\	.	.	.	.	.	.	.	.	.	.	.	.	.	.	.	.	.	.
8D/	.	8f\	.	16b-\	.	.	.	.	.	.	.	.	.	.	.	.	.	.	.	.	.	.
.	.	.	.	16b-\	.	.	.	.	.	.	.	.	.	.	.	.	.	.	.	.	.	.
8BB-/	.	8f\	.	16b-\	.	16raa	2b-\yy	.	.	.	.	.	.	.	.	.	.	.	.	.	.	.
.	.	.	.	16b-\	.	16aa-\LL	.	.	.	.	.	.	.	.	.	.	.	.	.	.	.	.
8BB-/	.	8f\	.	16b-\	.	16gg\	.	.	.	.	.	.	.	.	.	.	.	.	.	.	.	.
.	.	.	.	16b-\	.	16aa-\JJ	.	.	.	.	.	.	.	.	.	.	.	.	.	.	.	.
8D/	.	8f\	.	16b-\	.	16bb-\LL	.	.	.	.	.	.	.	.	.	.	.	.	.	.	.	.
.	.	.	.	16b-\	.	16aa-\	.	.	.	.	.	.	.	.	.	.	.	.	.	.	.	.
8D/J	.	8f\J	.	16b-\	.	16gg\	.	.	.	.	.	.	.	.	.	.	.	.	.	.	.	.
.	.	.	.	16b-\JJ	.	16aa-\JJ	.	.	.	.	.	.	.	.	.	.	.	.	.	.	.	.
*	*	*	*	*	*	*v	*v	*	*	*	*	*	*	*	*	*	*	*	*	*	*	*
=91	=91	=91	=91	=91	=91	=91	=91	=91	=91	=91	=91	=91	=91	=91	=91	=91	=91	=91	=91	=91	=91
8E-\L	.	8g\L	.	16b-\LL	.	8gg\L	.	4E-\	-son	4e-\	-son	4g\	-son	2b-\	-son	.	4ee-\	4g\	2.b-\	.	2.ryy
.	.	.	.	16b-\	.	.	.	.	.	.	.	.	.	.	.	.	.	.	.	.	.
8G\J	.	8g\	.	16b-\	.	16ee-\L	.	.	.	.	.	.	.	.	.	.	.	.	.	.	.
.	.	.	.	16b-\	.	16ff\JJ	.	.	.	.	.	.	.	.	.	.	.	.	.	.	.
8r	.	8g\	.	16b-\	.	8ee-\L	.	8r	.	8r	.	8r	.	.	.	.	4g/	4e-\	.	.	.
.	.	.	.	16b-\	.	.	.	.	.	.	.	.	.	.	.	.	.	.	.	.	.
8G\L	.	8g\J	.	16b-\	.	8ee-\	.	8G\L	e-	8e-\L	e-	8e-\L	.	.	.	.	.	.	.	.	.
.	.	.	.	16b-\	.	.	.	.	.	.	.	.	.	.	.	.	.	.	.	.	.
*	*	*Xtremolo	*	*	*	*	*	*	*	*	*	*	*	*	*	*	*	*	*	*	*
*	*	*	*	*	*	*	*	*	*	*	*	*	*	*	*ij	*	*	*	*	*	*
8F\	.	8f\L	.	16b-\	.	8ff\	.	8F\	.	8d\	.	8f\	e-	4b-\	e-	.	8b-/L	8f\L	.	.	.
.	.	.	.	16b-\	.	.	.	.	.	.	.	.	.	.	.	.	.	.	.	.	.
8E-\J	.	8e-\J	.	16b-\	.	8gg\J	.	8E-\J	.	8e-\J	.	8g\J	.	.	.	.	8ee-/J	8g\J	.	.	.
.	.	.	.	16b-\JJ	.	.	.	.	.	.	.	.	.	.	.	.	.	.	.	.	.
=92	=92	=92	=92	=92	=92	=92	=92	=92	=92	=92	=92	=92	=92	=92	=92	=92	=92	=92	=92	=92	=92
*	*	*	*	*	*	*^	*	*	*	*	*	*	*	*	*	*	*	*	*	*	*
*	*	*tremolo	*	*	*	*	*	*	*	*	*	*	*	*	*	*	*	*	*	*	*	*
8D/L	.	8f\L	.	16b-\LL	.	4aa-/	4b-\	.	2.D\	-lei-	2.f\	-lei-	2.a-\	-lei-	2.b-\	-lei-	.	2.ff\	2.a-\	2.b-\	.	2.ryy
.	.	.	.	16b-\	.	.	.	.	.	.	.	.	.	.	.	.	.	.	.	.	.	.
8D/	.	8f\	.	16b-\	.	.	.	.	.	.	.	.	.	.	.	.	.	.	.	.	.	.
.	.	.	.	16b-\	.	.	.	.	.	.	.	.	.	.	.	.	.	.	.	.	.	.
8BB-/	.	8f\	.	16b-\	.	16raa	2b-\yy	.	.	.	.	.	.	.	.	.	.	.	.	.	.	.
.	.	.	.	16b-\	.	16aa-\LL	.	.	.	.	.	.	.	.	.	.	.	.	.	.	.	.
8BB-/	.	8f\	.	16b-\	.	16gg\	.	.	.	.	.	.	.	.	.	.	.	.	.	.	.	.
.	.	.	.	16b-\	.	16aa-\JJ	.	.	.	.	.	.	.	.	.	.	.	.	.	.	.	.
8D/	.	8f\	.	16b-\	.	16bb-\LL	.	.	.	.	.	.	.	.	.	.	.	.	.	.	.	.
.	.	.	.	16b-\	.	16aa-\	.	.	.	.	.	.	.	.	.	.	.	.	.	.	.	.
8D/J	.	8f\J	.	16b-\	.	16gg\	.	.	.	.	.	.	.	.	.	.	.	.	.	.	.	.
.	.	.	.	16b-\JJ	.	16aa-\JJ	.	.	.	.	.	.	.	.	.	.	.	.	.	.	.	.
*	*	*Xtremolo	*	*	*	*	*	*	*	*	*	*	*	*	*	*	*	*	*	*	*	*
*	*	*	*	*	*	*v	*v	*	*	*	*	*	*	*	*	*	*	*	*	*	*	*
=93	=93	=93	=93	=93	=93	=93	=93	=93	=93	=93	=93	=93	=93	=93	=93	=93	=93	=93	=93	=93	=93
!	!	!	!	!	!	!	!	!	!	!	!	!	!	!	!	!	!LO:TX:t=P:problem=mixed beam	!	!	!	!
!	!	!	!	!	!	!	!	!	!	!	!	!	!	!	!	!	!LO:TX:t=P:problem=przed tym taktem dwa takty błędnie wpisane [wykreślone]	!	!	!	!
8E-\L	.	8e-\L	.	16b-\LL	.	8gg\L	.	8E-\	-son	8e-\	-son	8g\	-son	2b-,>\	-son	.	8ee-\L	8g\L	2.b-\	.	2.ryy
.	.	.	.	16b-\	.	.	.	.	.	.	.	.	.	.	.	.	.	.	.	.	.
*	*	*	*	*	*	*	*	*	*	*	*ij	*	*	*	*	*	*	*	*	*	*
8G\	.	8g\	.	16b-\	.	8ee-\	.	8G\	e-	8e-\	e-	8e-\L	e-	.	.	.	8g/	8e-\	.	.	.
.	.	.	.	16b-\	.	.	.	.	.	.	.	.	.	.	.	.	.	.	.	.	.
8F\	.	8f\	.	16b-\	.	8ff\	.	8F\L	-lei-	8d\L	-lei-	8f\	.	.	.	.	8b-/	8f\	.	.	.
.	.	.	.	16b-\	.	.	.	.	.	.	.	.	.	.	.	.	.	.	.	.	.
8E-\	.	8e-\J	.	16b-\	.	8gg\J	.	8E-\J	.	8e-\J	.	8g\J	-lei-	.	.	.	8ee-\J	8g\J	.	.	.
.	.	.	.	16b-\	.	.	.	.	.	.	.	.	.	.	.	.	.	.	.	.	.
*	*	*	*	*	*	*	*	*	*	*	*	*	*	*	*Xij	*	*	*	*	*	*
*	*	*	*	*	*	*	*	*	*	*	*	*	*	*	*ij	*	*	*	*	*	*
8D\	.	4f\	.	16b-\	.	8aa-\L	.	4D\	.	4f\	.	4a-\	.	4b-\	e-	.	4ff\	4a-\	.	.	.
.	.	.	.	16b-\	.	.	.	.	.	.	.	.	.	.	.	.	.	.	.	.	.
8BB-\J	.	.	.	16b-\	.	16bb-\L	.	.	.	.	.	.	.	.	.	.	.	.	.	.	.
.	.	.	.	16b-\JJ	.	16aa-\JJ	.	.	.	.	.	.	.	.	.	.	.	.	.	.	.
=94	=94	=94	=94	=94	=94	=94	=94	=94	=94	=94	=94	=94	=94	=94	=94	=94	=94	=94	=94	=94	=94
!	!	!	!	!	!	!	!	!	!	!	!	!	!	!	!	!	!LO:TX:t=P:problem=mixed beam	!	!	!	!
8E-\L	.	8e-\L	.	16b-\LL	.	8gg\L	.	8E-\	-son	8e-,>\	-son	8g\	-son	2.b-\	-lei-	.	8ee-\L	8g\L	2.b-\	.	2.ryy
.	.	.	.	16b-\	.	.	.	.	.	.	.	.	.	.	.	.	.	.	.	.	.
*	*	*	*	*	*	*	*	*	*	*	*Xij	*	*	*	*	*	*	*	*	*	*
*	*	*	*	*	*	*	*	*	*	*	*	*	*ij	*	*	*	*	*	*	*	*
8G\	.	8g\	.	16b-\	.	8ee-\	.	8G\	e-	8e-\	e-	8e-\L	e-	.	.	.	8g/	8e-\	.	.	.
.	.	.	.	16b-\	.	.	.	.	.	.	.	.	.	.	.	.	.	.	.	.	.
8F\	.	8f\	.	16b-\	.	8ff\	.	8F\L	-lei-	8d\L	-lei-	8f\	.	.	.	.	8b-/	8f\	.	.	.
.	.	.	.	16b-\	.	.	.	.	.	.	.	.	.	.	.	.	.	.	.	.	.
8E-\	.	8e-\J	.	16b-\	.	8gg\J	.	8E-\J	.	8e-\J	.	8g\J	-lei-	.	.	.	8ee-\J	8g\J	.	.	.
.	.	.	.	16b-\	.	.	.	.	.	.	.	.	.	.	.	.	.	.	.	.	.
8D\	.	4f\	.	16b-\	.	8aa-\L	.	4D\	.	4f\	.	4a-\	.	.	.	.	4ff\	4a-\	.	.	.
.	.	.	.	16b-\	.	.	.	.	.	.	.	.	.	.	.	.	.	.	.	.	.
8BB-\J	.	.	.	16b-\	.	16bb-\L	.	.	.	.	.	.	.	.	.	.	.	.	.	.	.
.	.	.	.	16b-\JJ	.	16aa-\JJ	.	.	.	.	.	.	.	.	.	.	.	.	.	.	.
=95	=95	=95	=95	=95	=95	=95	=95	=95	=95	=95	=95	=95	=95	=95	=95	=95	=95	=95	=95	=95	=95
8E-\L	.	8e-\L	.	16b-/LL	.	8gg\L	.	4E-\	-son	4f\	-son	2g,>\	-son	4b-\	-son	.	4ee-\	4g\	4b-\	.	2.ryy
.	.	.	.	16b-/	.	.	.	.	.	.	.	.	.	.	.	.	.	.	.	.	.
8E-\	.	8e-\	.	16b-/	.	8ee-\J	.	.	.	.	.	.	.	.	.	.	.	.	.	.	.
.	.	.	.	16b-/JJ	.	.	.	.	.	.	.	.	.	.	.	.	.	.	.	.	.
*	*	*	*	*	*	*	*	*	*	*	*	*	*	*	*Xij	*	*	*	*	*	*
*	*	*	*	*	*	*	*	*	*	*	*	*	*	*	*ij	*	*	*	*	*	*
8c\	.	8e-\	.	16g/LL	.	16ff\LL	.	(4c\	e-	(4c\	e-	.	.	2ee-\	e-	.	4r	4r	2g/	.	.
.	.	.	.	16g/	.	16ee-\	.	.	.	.	.	.	.	.	.	.	.	.	.	.	.
8c\	.	8e-\	.	16g/	.	16dd\	.	.	.	.	.	.	.	.	.	.	.	.	.	.	.
.	.	.	.	16g/JJ	.	16ee-\JJ	.	.	.	.	.	.	.	.	.	.	.	.	.	.	.
*	*	*	*	*	*	*	*	*	*	*	*	*	*Xij	*	*	*	*	*	*	*	*
*	*	*	*	*	*	*	*	*	*	*	*	*	*ij	*	*	*	*	*	*	*	*
8G\	.	8B-\	.	16e-/LL	.	16ff\LL	.	4G\)	.	4B-\)	.	4g\	e-	.	.	.	4r	4r	.	.	.
.	.	.	.	16e-/	.	16ee-\	.	.	.	.	.	.	.	.	.	.	.	.	.	.	.
8G\J	.	8B-\J	.	16e-/	.	16dd\	.	.	.	.	.	.	.	.	.	.	.	.	.	.	.
.	.	.	.	16e-/JJ	.	16ee-\JJ	.	.	.	.	.	.	.	.	.	.	.	.	.	.	.
=96	=96	=96	=96	=96	=96	=96	=96	=96	=96	=96	=96	=96	=96	=96	=96	=96	=96	=96	=96	=96	=96
.	.	.	.	.	.	8qqdd/	.	.	.	.	.	.	.	.	.	.	.	.	.	.	.
!	!	!	!	!	!	!	!	!	!	!	!	!	!	!	!	!	!LO:TX:t=P:problem=poprawki skryptora w nutach 1-2	!	!	!	!
8A-\L	.	8c/L	.	16e-/LL	.	8cc\L	.	4A-\	-lei-	(4c\	-lei-	8a-\L	-lei-	8cc\L	-lei-	.	4ff\	4a-\	4a-/	.	2.ryy
.	.	.	.	16e-/	.	.	.	.	.	.	.	.	.	.	.	.	.	.	.	.	.
8A-\	.	8c/J	.	16e-/	.	16b-\L	.	.	.	.	.	16g\L	.	16b-\L	.	.	.	.	.	.	.
.	.	.	.	16e-/	.	16a-\JJ	.	.	.	.	.	16f\JJ	.	16a-\JJ	.	.	.	.	.	.	.
*	*	*tremolo	*	*	*	*	*	*	*	*	*	*	*	*	*	*	*	*	*	*	*
8B-\	.	8B-/L	.	16e-/	.	4g/	.	4B-\	.	2B-\)	.	(4e-\	.	(4g/	.	.	4ee-\	4g\	4g/	.	.
.	.	.	.	16e-/	.	.	.	.	.	.	.	.	.	.	.	.	.	.	.	.	.
8B-\J	.	8B-/	.	16e-/	.	.	.	.	.	.	.	.	.	.	.	.	.	.	.	.	.
.	.	.	.	16e-/JJ	.	.	.	.	.	.	.	.	.	.	.	.	.	.	.	.	.
8BB-/L	.	8B-/	.	16d/LL	.	4fT/	.	4BB-/	.	.	.	4d\)	.	4f/)	.	.	4b-/	4f\	4f/	.	.
.	.	.	.	16d/	.	.	.	.	.	.	.	.	.	.	.	.	.	.	.	.	.
8BB-/J	.	8B-/J	.	16d/	.	.	.	.	.	.	.	.	.	.	.	.	.	.	.	.	.
.	.	.	.	16d/JJ	.	.	.	.	.	.	.	.	.	.	.	.	.	.	.	.	.
*	*	*	*	*Xtremolo	*	*	*	*	*	*	*	*	*	*	*	*	*	*	*	*	*
=97	=97	=97	=97	=97	=97	=97	=97	=97	=97	=97	=97	=97	=97	=97	=97	=97	=97	=97	=97	=97	=97
*tremolo	*	*	*	*	*	*	*	*	*	*	*	*	*	*	*	*	*	*	*	*	*
!	!	!	!	!	!	!LO:TX:t=P:problem=mixed beam	!	!	!	!	!	!	!	!	!	!	!	!	!	!	!
8E-\L	.	8B-/L	.	16e-/LL	.	16e-/LL	.	4E-\	-son	4B-\	-son	4e-,>\	-son	4g\	-son	.	2.e-/	2.e-\	2g/	.	2.ryy
.	.	.	.	16g/	.	16ee-\	.	.	.	.	.	.	.	.	.	.	.	.	.	.	.
8E-\	.	8B-/	.	16g/	.	16ee-\	.	.	.	.	.	.	.	.	.	.	.	.	.	.	.
.	.	.	.	16g/JJ	.	16ee-\JJ	.	.	.	.	.	.	.	.	.	.	.	.	.	.	.
*	*	*	*	*	*	*	*	*	*	*	*	*	*Xij	*	*Xij	*	*	*	*	*	*
*	*	*	*	*tremolo	*	*tremolo	*	*	*	*	*	*	*	*	*	*	*	*	*	*	*
8E-\	.	8B-/	.	16g/LL	.	16ee-\LL	.	4E-\	Ky-	4B-\	Ky-	4g\	Ky-	4ee-\	Ky-	.	.	.	.	.	.
.	.	.	.	16g/	.	16ee-\	.	.	.	.	.	.	.	.	.	.	.	.	.	.	.
8E-\	.	8B-/	.	16g/	.	16ee-\	.	.	.	.	.	.	.	.	.	.	.	.	.	.	.
.	.	.	.	16g/JJ	.	16ee-\	.	.	.	.	.	.	.	.	.	.	.	.	.	.	.
8E-\	.	8B-/	.	16b-\LL	.	16ee-\	.	4E-\	-ri-	4B-\	-ri-	4g\	-ri-	4ee-\	-ri-	.	.	.	4r	.	.
.	.	.	.	16b-\	.	16ee-\	.	.	.	.	.	.	.	.	.	.	.	.	.	.	.
8E-\J	.	8B-/J	.	16b-\	.	16ee-\	.	.	.	.	.	.	.	.	.	.	.	.	.	.	.
.	.	.	.	16b-\JJ	.	16ee-\JJ	.	.	.	.	.	.	.	.	.	.	.	.	.	.	.
=98	=98	=98	=98	=98	=98	=98	=98	=98	=98	=98	=98	=98	=98	=98	=98	=98	=98	=98	=98	=98	=98
!	!	!	!	!	!	!	!	!	!	!	!	!	!	!	!	!	!	!	!LO:TX:a:t=5	!	!
8G\L	.	8B-/L	.	16dd-X\LL	.	16ee-\LL	.	2G\	-e	2.d-X\	-e	2.b-\	-e	2.ee-\	-e	.	2.e-/	2.e-\	0.r	.	2.ryy
.	.	.	.	16dd-X\	.	16ee-\	.	.	.	.	.	.	.	.	.	.	.	.	.	.	.
8G\	.	8B-/	.	16dd-X\	.	16ee-\	.	.	.	.	.	.	.	.	.	.	.	.	.	.	.
.	.	.	.	16dd-X\	.	16ee-\	.	.	.	.	.	.	.	.	.	.	.	.	.	.	.
8G\	.	8B-/	.	16dd-X\	.	16ee-\	.	.	.	.	.	.	.	.	.	.	.	.	.	.	.
.	.	.	.	16dd-X\	.	16ee-\	.	.	.	.	.	.	.	.	.	.	.	.	.	.	.
8G\	.	8B-/	.	16dd-X\	.	16ee-\	.	.	.	.	.	.	.	.	.	.	.	.	.	.	.
.	.	.	.	16dd-X\	.	16ee-\	.	.	.	.	.	.	.	.	.	.	.	.	.	.	.
8G\	.	8B-/	.	16dd-X\	.	16ee-\	.	4G\	e-	.	.	.	.	.	.	.	.	.	.	.	.
.	.	.	.	16dd-X\	.	16ee-\	.	.	.	.	.	.	.	.	.	.	.	.	.	.	.
8G\J	.	8B-/J	.	16dd-X\	.	16ee-\	.	.	.	.	.	.	.	.	.	.	.	.	.	.	.
.	.	.	.	16dd-X\JJ	.	16ee-\JJ	.	.	.	.	.	.	.	.	.	.	.	.	.	.	.
=99	=99	=99	=99	=99	=99	=99	=99	=99	=99	=99	=99	=99	=99	=99	=99	=99	=99	=99	=99	=99	=99
8A-\L	.	8A-/L	.	16cc\LL	.	16ee-\LL	.	2.A-\	-lei-	2.c\	e-	2.a-\	e-	2.ee-\	e-	.	2.e-/	2.e-\	.	.	2.ryy
.	.	.	.	16cc\	.	16ee-\	.	.	.	.	.	.	.	.	.	.	.	.	.	.	.
8A-\	.	8A-/	.	16cc\	.	16ee-\	.	.	.	.	.	.	.	.	.	.	.	.	.	.	.
.	.	.	.	16cc\	.	16ee-\	.	.	.	.	.	.	.	.	.	.	.	.	.	.	.
8A-\	.	8A-/	.	16cc\	.	16ee-\	.	.	.	.	.	.	.	.	.	.	.	.	.	.	.
.	.	.	.	16cc\	.	16ee-\	.	.	.	.	.	.	.	.	.	.	.	.	.	.	.
8A-\	.	8A-/	.	16cc\	.	16ee-\	.	.	.	.	.	.	.	.	.	.	.	.	.	.	.
.	.	.	.	16cc\	.	16ee-\	.	.	.	.	.	.	.	.	.	.	.	.	.	.	.
8A-\	.	8A-/	.	16cc\	.	16ee-\	.	.	.	.	.	.	.	.	.	.	.	.	.	.	.
.	.	.	.	16cc\	.	16ee-\	.	.	.	.	.	.	.	.	.	.	.	.	.	.	.
8A-\J	.	8A-/J	.	16cc\	.	16ee-\	.	.	.	.	.	.	.	.	.	.	.	.	.	.	.
.	.	.	.	16cc\JJ	.	16ee-\JJ	.	.	.	.	.	.	.	.	.	.	.	.	.	.	.
=100	=100	=100	=100	=100	=100	=100	=100	=100	=100	=100	=100	=100	=100	=100	=100	=100	=100	=100	=100	=100	=100
8An\L	.	8c/L	.	16f/LL	.	16ee-\LL	.	2.An\	.	2.c\	-lei-	2.f\	-lei-	2.ee-\	-lei-	.	2.e-/	2.e-\	.	.	2.ryy
.	.	.	.	16f/	.	16ee-\	.	.	.	.	.	.	.	.	.	.	.	.	.	.	.
8An\	.	8c/	.	16f/	.	16ee-\	.	.	.	.	.	.	.	.	.	.	.	.	.	.	.
.	.	.	.	16f/	.	16ee-\	.	.	.	.	.	.	.	.	.	.	.	.	.	.	.
8An\	.	8c/	.	16f/	.	16ee-\	.	.	.	.	.	.	.	.	.	.	.	.	.	.	.
.	.	.	.	16f/	.	16ee-\	.	.	.	.	.	.	.	.	.	.	.	.	.	.	.
8An\	.	8c/	.	16f/	.	16ee-\	.	.	.	.	.	.	.	.	.	.	.	.	.	.	.
.	.	.	.	16f/	.	16ee-\	.	.	.	.	.	.	.	.	.	.	.	.	.	.	.
8An\	.	8c/	.	16f/	.	16ee-\	.	.	.	.	.	.	.	.	.	.	.	.	.	.	.
.	.	.	.	16f/	.	16ee-\	.	.	.	.	.	.	.	.	.	.	.	.	.	.	.
8An\J	.	8c/J	.	16f/	.	16ee-\	.	.	.	.	.	.	.	.	.	.	.	.	.	.	.
.	.	.	.	16f/JJ	.	16ee-\JJ	.	.	.	.	.	.	.	.	.	.	.	.	.	.	.
=101	=101	=101	=101	=101	=101	=101	=101	=101	=101	=101	=101	=101	=101	=101	=101	=101	=101	=101	=101	=101	=101
8B-\L	.	8B-/L	.	16g/LL	.	16ee-\LL	.	2.B-\	.	2.B-\	.	2.g\	.	2.ee-\	.	.	2.e-/	2.e-\	.	.	2.ryy
.	.	.	.	16g/	.	16ee-\	.	.	.	.	.	.	.	.	.	.	.	.	.	.	.
8B-\	.	8B-/	.	16g/	.	16ee-\	.	.	.	.	.	.	.	.	.	.	.	.	.	.	.
.	.	.	.	16g/	.	16ee-\	.	.	.	.	.	.	.	.	.	.	.	.	.	.	.
8B-\	.	8B-/	.	16g/	.	16ee-\	.	.	.	.	.	.	.	.	.	.	.	.	.	.	.
.	.	.	.	16g/	.	16ee-\	.	.	.	.	.	.	.	.	.	.	.	.	.	.	.
8B-\	.	8B-/	.	16g/	.	16ee-\	.	.	.	.	.	.	.	.	.	.	.	.	.	.	.
.	.	.	.	16g/	.	16ee-\	.	.	.	.	.	.	.	.	.	.	.	.	.	.	.
8B-\	.	8B-/	.	16g/	.	16ee-\	.	.	.	.	.	.	.	.	.	.	.	.	.	.	.
.	.	.	.	16g/	.	16ee-\	.	.	.	.	.	.	.	.	.	.	.	.	.	.	.
8B-\J	.	8B-/J	.	16g/	.	16ee-\	.	.	.	.	.	.	.	.	.	.	.	.	.	.	.
.	.	.	.	16g/JJ	.	16ee-\JJ	.	.	.	.	.	.	.	.	.	.	.	.	.	.	.
=102	=102	=102	=102	=102	=102	=102	=102	=102	=102	=102	=102	=102	=102	=102	=102	=102	=102	=102	=102	=102	=102
8B-\L	.	8f\L	.	16an/LL	.	16ee-\LL	.	2.c\	.	2.An\	.	2.an\	.	2.ee-\	.	.	2.e-/	2.e-\	2.r	.	2.ryy
.	.	.	.	16an/	.	16ee-\	.	.	.	.	.	.	.	.	.	.	.	.	.	.	.
8B-\	.	8f\	.	16an/	.	16ee-\	.	.	.	.	.	.	.	.	.	.	.	.	.	.	.
.	.	.	.	16an/	.	16ee-\	.	.	.	.	.	.	.	.	.	.	.	.	.	.	.
8B-\	.	8f\	.	16an/	.	16ee-\	.	.	.	.	.	.	.	.	.	.	.	.	.	.	.
.	.	.	.	16an/	.	16ee-\	.	.	.	.	.	.	.	.	.	.	.	.	.	.	.
8B-\	.	8f\	.	16an/	.	16ee-\	.	.	.	.	.	.	.	.	.	.	.	.	.	.	.
.	.	.	.	16an/	.	16ee-\	.	.	.	.	.	.	.	.	.	.	.	.	.	.	.
8B-\	.	8f\	.	16an/	.	16ee-\	.	.	.	.	.	.	.	.	.	.	.	.	.	.	.
.	.	.	.	16an/	.	16ee-\	.	.	.	.	.	.	.	.	.	.	.	.	.	.	.
8B-\J	.	8f\J	.	16an/	.	16ee-\	.	.	.	.	.	.	.	.	.	.	.	.	.	.	.
.	.	.	.	16an/JJ	.	16ee-\JJ	.	.	.	.	.	.	.	.	.	.	.	.	.	.	.
*	*	*	*	*	*	*Xtremolo	*	*	*	*	*	*	*	*	*	*	*	*	*	*	*
=103	=103	=103	=103	=103	=103	=103	=103	=103	=103	=103	=103	=103	=103	=103	=103	=103	=103	=103	=103	=103	=103
8B-\L	.	8f\L	.	16b-/LL	.	16dd\LL	.	4B-\	-son	4B-\	-son	4b-\	-son	4dd\	-son	.	4b-/	4B-/	2.b-\	.	2.ryy
.	.	.	.	16b-/	.	16ee-\	.	.	.	.	.	.	.	.	.	.	.	.	.	.	.
8B-\	.	8f\J	.	16b-/	.	16dd\	.	.	.	.	.	.	.	.	.	.	.	.	.	.	.
.	.	.	.	16b-/JJ	.	16ee-\JJ	.	.	.	.	.	.	.	.	.	.	.	.	.	.	.
8B-\	.	8B-/L	.	16d/LL	.	16ff\LL	.	4r	.	4r	.	4r	.	4r	.	.	4r	4r	.	.	.
.	.	.	.	16d/	.	16gg\	.	.	.	.	.	.	.	.	.	.	.	.	.	.	.
8B-\J	.	8B-/	.	16d/	.	16ff\	.	.	.	.	.	.	.	.	.	.	.	.	.	.	.
.	.	.	.	16d/JJ	.	16gg\JJ	.	.	.	.	.	.	.	.	.	.	.	.	.	.	.
!	!	!	!	!	!	!	!	!LO:TX:t=P:problem=wysokość nuty niejasna, nad nutą litera "d"	!	!	!	!	!	!	!	!	!	!	!	!	!
.	.	.	.	.	.	8qqbb-/	.	.	.	.	.	.	.	.	.	.	.	.	.	.	.
*	*	*	*	*	*	*	*	*	*	*	*	*	*	*	*ij	*	*	*	*	*	*
8D\L	.	8B-/	.	16f/LL	.	8aa-\L	.	4D\	e-	4B-\	e-	4a-X\	e-	4ff\	e-	.	4r	4r	.	.	.
.	.	.	.	16f/	.	.	.	.	.	.	.	.	.	.	.	.	.	.	.	.	.
8D\J	.	8B-/J	.	16f/	.	16gg\L	.	.	.	.	.	.	.	.	.	.	.	.	.	.	.
.	.	.	.	16f/JJ	.	16ff\JJ	.	.	.	.	.	.	.	.	.	.	.	.	.	.	.
*Xtremolo	*	*Xtremolo	*	*	*	*	*	*	*	*	*	*	*	*	*	*	*	*	*	*	*
=104	=104	=104	=104	=104	=104	=104	=104	=104	=104	=104	=104	=104	=104	=104	=104	=104	=104	=104	=104	=104	=104
8E-\L	.	8B-\L	.	16g/LL	.	8gg\	.	4E-\	-lei-	4B-\	-lei-	2g\	-lei-	2.ee-\	-le-	.	2ee-\	2g\	4b-\	.	2.ryy
.	.	.	.	16g/	.	.	.	.	.	.	.	.	.	.	.	.	.	.	.	.	.
8E-\	.	8B-\	.	16g/	.	4ee-\	.	.	.	.	.	.	.	.	.	.	.	.	.	.	.
.	.	.	.	16g/	.	.	.	.	.	.	.	.	.	.	.	.	.	.	.	.	.
8B-\	.	8c\	.	16g/	.	.	.	4c\	.	2c\	.	.	.	.	.	.	.	.	4g\	.	.
.	.	.	.	16g/	.	.	.	.	.	.	.	.	.	.	.	.	.	.	.	.	.
8B-\	.	8c\	.	16g/	.	4ee-\	.	.	.	.	.	.	.	.	.	.	.	.	.	.	.
.	.	.	.	16g/JJ	.	.	.	.	.	.	.	.	.	.	.	.	.	.	.	.	.
8An\	.	8c\	.	16f/LL	.	.	.	4An\	.	.	.	4f\	.	.	.	.	4ff\	4f\	4f/	.	.
.	.	.	.	16f/	.	.	.	.	.	.	.	.	.	.	.	.	.	.	.	.	.
8A\J	.	8c\J	.	16f/	.	8ee-\	.	.	.	.	.	.	.	.	.	.	.	.	.	.	.
.	.	.	.	16f/JJ	.	.	.	.	.	.	.	.	.	.	.	.	.	.	.	.	.
=105	=105	=105	=105	=105	=105	=105	=105	=105	=105	=105	=105	=105	=105	=105	=105	=105	=105	=105	=105	=105	=105
*tremolo	*	*tremolo	*	*	*	*tremolo	*	*	*	*	*	*	*	*	*	*	*	*	*	*	*
8B-\L	.	8B-/L	.	16g/LL	.	16ee-\LL	.	2B-\	.	2.B-\	.	4g\	.	(2ee-\	-i-	.	4ee-\	4g\	8r	.	2.ryy
.	.	.	.	16g/	.	16ee-\	.	.	.	.	.	.	.	.	.	.	.	.	.	.	.
!	!	!	!	!	!	!	!	!	!	!	!	!	!	!	!	!	!	!	!LO:TX:t=P:problem=1 ćwierćnuta	!	!
8B-\	.	8B-/	.	16g/	.	16ee-\	.	.	.	.	.	.	.	.	.	.	.	.	8g/	.	.
.	.	.	.	16g/JJ	.	16ee-\	.	.	.	.	.	.	.	.	.	.	.	.	.	.	.
8B-\	.	8B-/	.	16f/LL	.	16ee-\	.	.	.	.	.	2f\	.	.	.	.	2b-/	2f\	2f/	.	.
.	.	.	.	16f/	.	16ee-\	.	.	.	.	.	.	.	.	.	.	.	.	.	.	.
8B-\J	.	8B-/	.	16f/	.	16ee-\	.	.	.	.	.	.	.	.	.	.	.	.	.	.	.
.	.	.	.	16f/	.	16ee-\JJ	.	.	.	.	.	.	.	.	.	.	.	.	.	.	.
*Xtremolo	*	*	*	*	*	*	*	*	*	*	*	*	*	*	*	*	*	*	*	*	*
8BB-/L	.	8B-/	.	16f/	.	16dd\LL	.	4BB-/	.	.	.	.	.	4dd\)	.	.	.	.	.	.	.
.	.	.	.	16f/	.	16dd\	.	.	.	.	.	.	.	.	.	.	.	.	.	.	.
8BB-/J	.	8B-/J	.	16f/	.	16dd\	.	.	.	.	.	.	.	.	.	.	.	.	.	.	.
.	.	.	.	16f/JJ	.	16dd\JJ	.	.	.	.	.	.	.	.	.	.	.	.	.	.	.
*	*	*	*	*	*	*Xtremolo	*	*	*	*	*	*	*	*	*	*	*	*	*	*	*
*	*	*	*	*Xtremolo	*	*	*	*	*	*	*	*	*	*	*	*	*	*	*	*	*
*	*	*Xtremolo	*	*	*	*	*	*	*	*	*	*	*	*	*	*	*	*	*	*	*
=106	=106	=106	=106	=106	=106	=106	=106	=106	=106	=106	=106	=106	=106	=106	=106	=106	=106	=106	=106	=106	=106
4E-\	.	4B-/	.	4g/	.	4ee-\	.	4E-\	-son	4B-\	-son.	4g\	-son	4ee-\	-son	.	4ee-\	4g\	4g/	.	2.ryy
*	*	*	*	*	*	*	*	*	*	*	*	*	*	*	*Xij	*	*	*	*	*	*
4r	.	4r	.	4r	.	4r	.	4r	.	4r	.	4r	.	4r	.	.	4r	4r	4r	.	.
!	!	!	!	!LO:TX:b:i:t=Seque Gloria	!	!LO:TX:b:i:t=Seque Gloria.	!	!	!	!	!	!	!	!	!	!	!	!	!	!	!
4r	.	4r	.	4r	.	4r	.	4r	.	4r	.	4r	.	4r	.	.	4r	4r	4r	.	.
==	==	==	==	==	==	==	==	==	==	==	==	==	==	==	==	==	==	==	==	==	==
*-	*-	*-	*-	*-	*-	*-	*-	*-	*-	*-	*-	*-	*-	*-	*-	*-	*-	*-	*-	*-	*-
!!!system-decoration: [(s1,s2)][(s3,s4)][(s5,s6,s7,s8)][(s9,s10,s11)][(s12)]
!!!RDF**kern: > = above
!!!RDF**kern: < = below
!!!RDF**dynam: > = "Dim:", fontstyle= "bold-italic"
!!!RDF**dynam: < = "Cres:", fontstyle= "bold-italic"
!!!RDF**kern: | = vertical stroke
!!!RDF**kern: N = linked
!!!RDF**kern: i = editorial accidental
!!!RDF**kern: l = terminal long
!!!ENC: Mateusz Solarz
!!!END: 2020-09-28
!!!EED: Wojciech Jakubiak-Danek
!!!EEV: 2022-02-02
